; Generated with MatterSlice 2.20.4
; filamentDiameter = 3
; extrusionWidth = 0.5
; firstLayerExtrusionWidth = 0.5
; layerThickness = 0.4
; firstLayerThickness = 0.3
; automatic settings before start_gcode
G21 ; set units to millimeters
M107 ; fan off
M140 S70 ; start heating the bed
M104 T0 S200 ; start heating T0
T0 ; set the active extruder to 0
; settings from start_gcode
G28 ; home all axes
G1 Z5 F5000
; automatic settings after start_gcode
M190 S70 ; wait for bed temperature to be reached
M109 T0 S200 ; Finish heating T0
T0 ; set the active extruder to 0
G90 ; use absolute coordinates
G92 E0 ; reset the expected extruder position
M82 ; use absolute distance for extrusion
; Layer count: 50
; Layer Change GCode
; LAYER:0
; LAYER_HEIGHT:0.3
; TYPE:FILL
M400
M107
G1 X67.75 Y71.75 Z0.3 F7800
; TYPE:SKIRT
G1 F1800
G1 X132.25 E1.369 F1080
G1 Y128.25 E2.568
G1 X67.75 E3.936
G1 Y71.75 E5.135
G1 X73.25 Y77.25 F7800
; TYPE:WALL-OUTER
G1 X126.75 E6.271 F1080
G1 Y122.75 E7.236
G1 X73.25 E8.372
G1 Y77.3 E9.336
G1 Y77.25
G1 X76.25
G1 X73.75 Y77.75 F7800
; TYPE:WALL-INNER
G1 X126.25 E10.45 F1080
G1 Y122.25 E11.394
G1 X73.75 E12.509
G1 Y77.8 E13.452
G1 Y77.75
G1 X74.25 Y78.25 F7800
G1 X125.75 E14.545 F1080
G1 Y121.75 E15.468
G1 X74.25 E16.561
G1 Y78.3 E17.483
G1 Y78.25
G1 X74.69 Y78.75 F7800
; TYPE:FILL
G1 X74.75 Y78.69 E17.485 F1080
G1 X75.46 F7800
G1 X74.69 Y79.46 E17.508 F1080
G1 Y80.17 F7800
G1 X76.17 Y78.69 E17.552 F1080
G1 X76.87 F7800
G1 X74.69 Y80.87 E17.618 F1080
G1 Y81.58 F7800
G1 X77.58 Y78.69 E17.704 F1080
G1 X78.29 F7800
G1 X74.69 Y82.29 E17.812 F1080
G1 Y82.99 F7800
G1 X79 Y78.69 E17.941 F1080
G1 X79.7 F7800
G1 X74.69 Y83.7 E18.092 F1080
G1 Y84.41 F7800
G1 X80.41 Y78.69 E18.263 F1080
G1 X81.12 F7800
G1 X74.69 Y85.12 E18.456 F1080
G1 Y85.82 F7800
G1 X81.82 Y78.69 E18.67 F1080
G1 X82.53 F7800
G1 X74.69 Y86.53 E18.906 F1080
G1 Y87.24 F7800
G1 X83.24 Y78.69 E19.162 F1080
G1 X83.94 F7800
G1 X74.69 Y87.94 E19.44 F1080
G1 Y88.65 F7800
G1 X84.65 Y78.69 E19.739 F1080
G1 X85.36 F7800
G1 X74.69 Y89.36 E20.059 F1080
G1 Y90.07 F7800
G1 X86.07 Y78.69 E20.4 F1080
G1 X86.77 F7800
G1 X74.69 Y90.77 E20.763 F1080
G1 Y91.48 F7800
G1 X87.48 Y78.69 E21.147 F1080
G1 X88.19 F7800
G1 X74.69 Y92.19 E21.552 F1080
G1 Y92.89 F7800
G1 X88.89 Y78.69 E21.978 F1080
G1 X89.6 F7800
G1 X74.69 Y93.6 E22.426 F1080
G1 Y94.31 F7800
G1 X90.31 Y78.69 E22.894 F1080
G1 X91.02 F7800
G1 X74.69 Y95.02 E23.384 F1080
G1 Y95.72 F7800
G1 X91.72 Y78.69 E23.896 F1080
G1 X92.43 F7800
G1 X74.69 Y96.43 E24.428 F1080
G1 Y97.14 F7800
G1 X93.14 Y78.69 E24.982 F1080
G1 X93.84 F7800
G1 X74.69 Y97.84 E25.556 F1080
G1 Y98.55 F7800
G1 X94.55 Y78.69 E26.152 F1080
G1 X95.26 F7800
G1 X74.69 Y99.26 E26.77 F1080
G1 Y99.97 F7800
G1 X95.97 Y78.69 E27.408 F1080
G1 X96.67 F7800
G1 X74.69 Y100.67 E28.068 F1080
G1 Y101.38 F7800
G1 X97.38 Y78.69 E28.749 F1080
G1 X98.09 F7800
G1 X74.69 Y102.09 E29.451 F1080
G1 Y102.79 F7800
G1 X98.79 Y78.69 E30.174 F1080
G1 X99.5 F7800
G1 X74.69 Y103.5 E30.919 F1080
G1 Y104.21 F7800
G1 X100.21 Y78.69 E31.685 F1080
G1 X100.92 F7800
G1 X74.69 Y104.92 E32.472 F1080
G1 Y105.62 F7800
G1 X101.62 Y78.69 E33.28 F1080
G1 X102.33 F7800
G1 X74.69 Y106.33 E34.11 F1080
G1 Y107.04 F7800
G1 X103.04 Y78.69 E34.96 F1080
G1 X103.74 F7800
G1 X74.69 Y107.74 E35.832 F1080
G1 Y108.45 F7800
G1 X104.45 Y78.69 E36.726 F1080
G1 X105.16 F7800
G1 X74.69 Y109.16 E37.64 F1080
G1 Y109.87 F7800
G1 X105.87 Y78.69 E38.576 F1080
G1 X106.57 F7800
G1 X74.69 Y110.57 E39.532 F1080
G1 Y111.28 F7800
G1 X107.28 Y78.69 E40.51 F1080
G1 X107.99 F7800
G1 X74.69 Y111.99 E41.51 F1080
G1 Y112.69 F7800
G1 X108.69 Y78.69 E42.53 F1080
G1 X109.4 F7800
G1 X74.69 Y113.4 E43.572 F1080
G1 Y114.11 F7800
G1 X110.11 Y78.69 E44.635 F1080
G1 X110.81 F7800
G1 X74.69 Y114.82 E45.719 F1080
G1 Y115.52 F7800
G1 X111.52 Y78.69 E46.824 F1080
G1 X112.23 F7800
G1 X74.69 Y116.23 E47.951 F1080
G1 Y116.94 F7800
G1 X112.94 Y78.69 E49.099 F1080
G1 X113.64 F7800
G1 X74.69 Y117.64 E50.268 F1080
G1 Y118.35 F7800
G1 X114.35 Y78.69 E51.458 F1080
G1 X115.06 F7800
G1 X74.69 Y119.06 E52.669 F1080
G1 Y119.76 F7800
G1 X115.76 Y78.69 E53.902 F1080
G1 X116.47 F7800
G1 X74.69 Y120.47 E55.156 F1080
G1 Y121.18 F7800
G1 X117.18 Y78.69 E56.431 F1080
G1 X117.89 F7800
G1 X75.27 Y121.31 E57.71 F1080
G1 X75.97 F7800
G1 X118.59 Y78.69 E58.989 F1080
G1 X119.3 F7800
G1 X76.68 Y121.31 E60.268 F1080
G1 X77.39 F7800
G1 X120.01 Y78.69 E61.547 F1080
G1 X120.71 F7800
G1 X78.09 Y121.31 E62.826 F1080
G1 X78.8 F7800
G1 X121.42 Y78.69 E64.105 F1080
G1 X122.13 F7800
G1 X79.51 Y121.31 E65.384 F1080
G1 X80.22 F7800
G1 X122.84 Y78.69 E66.663 F1080
G1 X123.54 F7800
G1 X80.92 Y121.31 E67.943 F1080
G1 X81.63 F7800
G1 X124.25 Y78.69 E69.222 F1080
G1 X124.96 F7800
G1 X82.34 Y121.31 E70.501 F1080
G1 X83.04 F7800
G1 X125.31 Y79.04 E71.769 F1080
G1 Y79.75 F7800
G1 X83.75 Y121.31 E73.016 F1080
G1 X84.46 F7800
G1 X125.31 Y80.46 E74.242 F1080
G1 Y81.17 F7800
G1 X85.17 Y121.31 E75.447 F1080
G1 X85.87 F7800
G1 X125.31 Y81.87 E76.63 F1080
G1 Y82.58 F7800
G1 X86.58 Y121.31 E77.793 F1080
G1 X87.29 F7800
G1 X125.31 Y83.29 E78.934 F1080
G1 Y83.99 F7800
G1 X87.99 Y121.31 E80.054 F1080
G1 X88.7 F7800
G1 X125.31 Y84.7 E81.152 F1080
G1 Y85.41 F7800
G1 X89.41 Y121.31 E82.23 F1080
G1 X90.12 F7800
G1 X125.31 Y86.12 E83.286 F1080
G1 Y86.82 F7800
G1 X90.82 Y121.31 E84.321 F1080
G1 X91.53 F7800
G1 X125.31 Y87.53 E85.334 F1080
G1 Y88.24 F7800
G1 X92.24 Y121.31 E86.327 F1080
G1 X92.94 F7800
G1 X125.31 Y88.94 E87.298 F1080
G1 Y89.65 F7800
G1 X93.65 Y121.31 E88.248 F1080
G1 X94.36 F7800
G1 X125.31 Y90.36 E89.177 F1080
G1 Y91.07 F7800
G1 X95.07 Y121.31 E90.085 F1080
G1 X95.77 F7800
G1 X125.31 Y91.77 E90.971 F1080
G1 Y92.48 F7800
G1 X96.48 Y121.31 E91.836 F1080
G1 X97.19 F7800
G1 X125.31 Y93.19 E92.68 F1080
G1 Y93.89 F7800
G1 X97.89 Y121.31 E93.503 F1080
G1 X98.6 F7800
G1 X125.31 Y94.6 E94.305 F1080
G1 Y95.31 F7800
G1 X99.31 Y121.31 E95.085 F1080
G1 X100.01 F7800
G1 X125.31 Y96.02 E95.844 F1080
G1 Y96.72 F7800
G1 X100.72 Y121.31 E96.582 F1080
G1 X101.43 F7800
G1 X125.31 Y97.43 E97.299 F1080
G1 Y98.14 F7800
G1 X102.14 Y121.31 E97.994 F1080
G1 X102.84 F7800
G1 X125.31 Y98.84 E98.668 F1080
G1 Y99.55 F7800
G1 X103.55 Y121.31 E99.321 F1080
G1 X104.26 F7800
G1 X125.31 Y100.26 E99.953 F1080
G1 Y100.96 F7800
G1 X104.96 Y121.31 E100.564 F1080
G1 X105.67 F7800
G1 X125.31 Y101.67 E101.153 F1080
G1 Y102.38 F7800
G1 X106.38 Y121.31 E101.721 F1080
G1 X107.09 F7800
G1 X125.31 Y103.09 E102.268 F1080
G1 Y103.79 F7800
G1 X107.79 Y121.31 E102.794 F1080
G1 X108.5 F7800
G1 X125.31 Y104.5 E103.298 F1080
G1 Y105.21 F7800
G1 X109.21 Y121.31 E103.781 F1080
G1 X109.91 F7800
G1 X125.31 Y105.91 E104.243 F1080
G1 Y106.62 F7800
G1 X110.62 Y121.31 E104.684 F1080
G1 X111.33 F7800
G1 X125.31 Y107.33 E105.104 F1080
G1 Y108.04 F7800
G1 X112.04 Y121.31 E105.502 F1080
G1 X112.74 F7800
G1 X125.31 Y108.74 E105.879 F1080
G1 Y109.45 F7800
G1 X113.45 Y121.31 E106.235 F1080
G1 X114.16 F7800
G1 X125.31 Y110.16 E106.57 F1080
G1 Y110.86 F7800
G1 X114.86 Y121.31 E106.883 F1080
G1 X115.57 F7800
G1 X125.31 Y111.57 E107.176 F1080
G1 Y112.28 F7800
G1 X116.28 Y121.31 E107.447 F1080
G1 X116.99 F7800
G1 X125.31 Y112.99 E107.696 F1080
G1 Y113.69 F7800
G1 X117.69 Y121.31 E107.925 F1080
G1 X118.4 F7800
G1 X125.31 Y114.4 E108.132 F1080
G1 Y115.11 F7800
G1 X119.11 Y121.31 E108.319 F1080
G1 X119.81 F7800
G1 X125.31 Y115.81 E108.484 F1080
G1 Y116.52 F7800
G1 X120.52 Y121.31 E108.627 F1080
G1 X121.23 F7800
G1 X125.31 Y117.23 E108.75 F1080
G1 Y117.94 F7800
G1 X121.93 Y121.31 E108.851 F1080
G1 X122.64 F7800
G1 X125.31 Y118.64 E108.931 F1080
G1 Y119.35 F7800
G1 X123.35 Y121.31 E108.99 F1080
G1 X124.06 F7800
G1 X125.31 Y120.06 E109.027 F1080
G1 Y120.76 F7800
G1 X124.76 Y121.31 E109.044 F1080
; Layer Change GCode
; LAYER:1
; LAYER_HEIGHT:0.4
; TYPE:FILL
G1 X125.25 Y121.25 Z0.7 F7800
; TYPE:WALL-INNER
G1 X120.66 E109.174 F1800
G1 X116.07 E109.304
G1 X111.48 E109.434
G1 X106.89 E109.564
G1 X102.3 E109.694
G1 X97.7 E109.823
G1 X93.11 E109.953
G1 X88.52 E110.083
G1 X83.93 E110.213
G1 X79.34 E110.343
G1 X74.75 E110.473
G1 Y116.53 E110.607
G1 Y111.81 E110.74
G1 Y107.08 E110.874
G1 Y102.36 E111.007
G1 Y97.64 E111.141
G1 Y92.92 E111.274
G1 Y88.19 E111.408
G1 Y83.47 E111.541
G1 Y78.75 E111.675
G1 X79.34 E111.805
G1 X83.93 E111.935
G1 X88.52 E112.065
G1 X93.11 E112.195
G1 X97.7 E112.325
G1 X102.3 E112.454
G1 X106.89 E112.584
G1 X111.48 E112.714
G1 X116.07 E112.844
G1 X120.66 E112.974
G1 X125.25 E113.104
G1 Y83.47 E113.237
G1 Y88.18 E113.371
G1 Y92.9 E113.504
G1 Y97.62 E113.638
G1 Y102.33 E113.771
G1 Y107.05 E113.905
G1 Y111.77 E114.038
G1 Y116.48 E114.172
G1 Y121.2 E114.305
G1 Y121.25
G1 X125.75 Y121.75 F7800
G1 X121.07 E114.437 F1800
G1 X116.39 E114.57
G1 X111.7 E114.702
G1 X107.02 E114.835
G1 X102.34 E114.967
G1 X97.66 E115.1
G1 X92.98 E115.232
G1 X88.3 E115.365
G1 X83.61 E115.497
G1 X78.93 E115.63
G1 X74.25 E115.762
G1 Y116.92 E115.899
G1 Y112.08 E116.036
G1 Y107.25 E116.172
G1 Y102.42 E116.309
G1 Y97.58 E116.446
G1 Y92.75 E116.583
G1 Y87.92 E116.719
G1 Y83.08 E116.856
G1 Y78.25 E116.993
G1 X78.93 E117.125
G1 X83.61 E117.258
G1 X88.3 E117.39
G1 X92.98 E117.523
G1 X97.66 E117.655
G1 X102.34 E117.788
G1 X107.02 E117.92
G1 X111.7 E118.053
G1 X116.39 E118.185
G1 X121.07 E118.318
G1 X125.75 E118.45
G1 Y83.08 E118.587
G1 Y87.91 E118.723
G1 Y92.73 E118.86
G1 Y97.56 E118.997
G1 Y102.39 E119.133
G1 Y107.22 E119.27
G1 Y112.04 E119.407
G1 Y116.87 E119.543
G1 Y121.7 E119.68
G1 Y121.75
G1 X126.25 Y122.25 F7800
G1 X121.48 E119.815 F1800
G1 X116.7 E119.95
G1 X111.93 E120.085
G1 X107.16 E120.22
G1 X102.39 E120.355
G1 X97.61 E120.49
G1 X92.84 E120.625
G1 X88.07 E120.76
G1 X83.3 E120.895
G1 X78.52 E121.03
G1 X73.75 E121.165
G1 Y117.31 E121.305
G1 Y112.36 E121.445
G1 Y107.42 E121.585
G1 Y102.47 E121.725
G1 Y97.53 E121.864
G1 Y92.58 E122.004
G1 Y87.64 E122.144
G1 Y82.69 E122.284
G1 Y77.75 E122.424
G1 X78.52 E122.559
G1 X83.3 E122.694
G1 X88.07 E122.829
G1 X92.84 E122.964
G1 X97.61 E123.099
G1 X102.39 E123.235
G1 X107.16 E123.37
G1 X111.93 E123.505
G1 X116.7 E123.64
G1 X121.48 E123.775
G1 X126.25 E123.91
G1 Y82.69 E124.05
G1 Y87.63 E124.189
G1 Y92.57 E124.329
G1 Y97.51 E124.469
G1 Y102.44 E124.608
G1 Y107.38 E124.748
G1 Y112.32 E124.888
G1 Y117.26 E125.027
G1 Y122.2 E125.167
G1 Y122.25
G1 X126.75 Y122.75 F7800
; TYPE:WALL-OUTER
G1 X121.89 E125.305 F1260
G1 X117.02 E125.442
G1 X112.16 E125.58
G1 X107.3 E125.718
G1 X102.43 E125.855
G1 X97.57 E125.993
G1 X92.7 E126.13
G1 X87.84 E126.268
G1 X82.98 E126.406
G1 X78.11 E126.543
G1 X73.25 E126.681
G1 Y118.2 E126.81
G1 Y113.65 E126.938
G1 Y109.1 E127.067
G1 Y104.55 E127.196
G1 Y100 E127.325
G1 Y95.45 E127.453
G1 Y90.9 E127.582
G1 Y86.35 E127.711
G1 Y81.8 E127.839
G1 Y77.25 E127.968
G1 X78.11 E128.106
G1 X82.98 E128.243
G1 X87.84 E128.381
G1 X92.7 E128.519
G1 X97.57 E128.656
G1 X102.43 E128.794
G1 X107.3 E128.931
G1 X112.16 E129.069
G1 X117.02 E129.207
G1 X121.89 E129.344
G1 X126.75 E129.482
G1 Y81.8 E129.611
G1 Y86.34 E129.739
G1 Y90.89 E129.868
G1 Y95.43 E129.996
G1 Y99.98 E130.125
G1 Y104.52 E130.254
G1 Y109.07 E130.382
G1 Y113.61 E130.511
G1 Y118.16 E130.639
G1 Y122.7 E130.768
G1 Y122.75
G1 X123.75
G1 X125.25 Y121.25 F7800
G1 X124.81 Y120.57
; TYPE:FILL
G1 X121.36 Y117.12 E130.906 F3600
G1 X117.91 Y113.67 E131.044
G1 X114.47 Y110.23 E131.182
G1 X111.02 Y106.78 E131.32
G1 X107.57 Y103.33 E131.458
G1 X104.12 Y99.88 E131.596
G1 X100.67 Y96.43 E131.734
G1 X97.22 Y92.98 E131.872
G1 X93.78 Y89.54 E132.01
G1 X90.33 Y86.09 E132.148
G1 X86.88 Y82.64 E132.286
G1 X83.43 Y79.19 E132.424
G1 X82.73 F7800
G1 X86.2 Y82.66 E132.563 F3600
G1 X89.67 Y86.13 E132.702
G1 X93.14 Y89.59 E132.84
G1 X96.6 Y93.06 E132.979
G1 X100.07 Y96.53 E133.118
G1 X103.54 Y100 E133.257
G1 X107.01 Y103.47 E133.395
G1 X110.48 Y106.94 E133.534
G1 X113.95 Y110.41 E133.673
G1 X117.41 Y113.87 E133.812
G1 X120.88 Y117.34 E133.95
G1 X124.35 Y120.81 E134.089
G1 X123.64 F7800
G1 X120.17 Y117.34 E134.228 F3600
G1 X116.7 Y113.87 E134.367
G1 X113.24 Y110.41 E134.506
G1 X109.77 Y106.94 E134.644
G1 X106.3 Y103.47 E134.783
G1 X102.83 Y100 E134.922
G1 X99.36 Y96.53 E135.061
G1 X95.89 Y93.06 E135.2
G1 X92.43 Y89.59 E135.339
G1 X88.96 Y86.13 E135.477
G1 X85.49 Y82.66 E135.616
G1 X82.02 Y79.19 E135.755
G1 X81.31 F7800
G1 X84.78 Y82.66 E135.894 F3600
G1 X88.25 Y86.13 E136.033
G1 X91.72 Y89.59 E136.171
G1 X95.18 Y93.06 E136.31
G1 X98.65 Y96.53 E136.449
G1 X102.12 Y100 E136.588
G1 X105.59 Y103.47 E136.726
G1 X109.06 Y106.94 E136.865
G1 X112.53 Y110.41 E137.004
G1 X115.99 Y113.87 E137.143
G1 X119.46 Y117.34 E137.281
G1 X122.93 Y120.81 E137.42
G1 X122.22 F7800
G1 X118.75 Y117.34 E137.559 F3600
G1 X115.28 Y113.87 E137.698
G1 X111.82 Y110.41 E137.836
G1 X108.35 Y106.94 E137.975
G1 X104.88 Y103.47 E138.114
G1 X101.41 Y100 E138.253
G1 X97.94 Y96.53 E138.391
G1 X94.47 Y93.06 E138.53
G1 X91.01 Y89.59 E138.669
G1 X87.54 Y86.13 E138.808
G1 X84.07 Y82.66 E138.946
G1 X80.6 Y79.19 E139.085
G1 X79.9 F7800
G1 X83.37 Y82.66 E139.224 F3600
G1 X86.84 Y86.13 E139.363
G1 X90.31 Y89.59 E139.502
G1 X93.77 Y93.06 E139.64
G1 X97.24 Y96.53 E139.779
G1 X100.71 Y100 E139.918
G1 X104.18 Y103.47 E140.057
G1 X107.65 Y106.94 E140.196
G1 X111.12 Y110.41 E140.335
G1 X114.58 Y113.87 E140.473
G1 X118.05 Y117.34 E140.612
G1 X121.52 Y120.81 E140.751
G1 X120.81 F7800
G1 X117.34 Y117.34 E140.89 F3600
G1 X113.87 Y113.87 E141.029
G1 X110.41 Y110.41 E141.167
G1 X106.94 Y106.94 E141.306
G1 X103.47 Y103.47 E141.445
G1 X100 Y100 E141.584
G1 X96.53 Y96.53 E141.722
G1 X93.06 Y93.06 E141.861
G1 X89.6 Y89.59 E142
G1 X86.13 Y86.13 E142.139
G1 X82.66 Y82.66 E142.277
G1 X79.19 Y79.19 E142.416
G1 X78.48 F7800
G1 X81.95 Y82.66 E142.555 F3600
G1 X85.42 Y86.13 E142.694
G1 X88.89 Y89.59 E142.833
G1 X92.35 Y93.06 E142.971
G1 X95.82 Y96.53 E143.11
G1 X99.29 Y100 E143.249
G1 X102.76 Y103.47 E143.388
G1 X106.23 Y106.94 E143.527
G1 X109.7 Y110.41 E143.666
G1 X113.16 Y113.87 E143.804
G1 X116.63 Y117.34 E143.943
G1 X120.1 Y120.81 E144.082
G1 X119.4 F7800
G1 X115.93 Y117.34 E144.221 F3600
G1 X112.46 Y113.87 E144.36
G1 X109 Y110.41 E144.498
G1 X105.53 Y106.94 E144.637
G1 X102.06 Y103.47 E144.776
G1 X98.59 Y100 E144.915
G1 X95.12 Y96.53 E145.053
G1 X91.65 Y93.06 E145.192
G1 X88.19 Y89.59 E145.331
G1 X84.72 Y86.13 E145.47
G1 X81.25 Y82.66 E145.608
G1 X77.78 Y79.19 E145.747
G1 X77.07 F7800
G1 X80.54 Y82.66 E145.886 F3600
G1 X84.01 Y86.13 E146.025
G1 X87.48 Y89.59 E146.163
G1 X90.94 Y93.06 E146.302
G1 X94.41 Y96.53 E146.441
G1 X97.88 Y100 E146.58
G1 X101.35 Y103.47 E146.718
G1 X104.82 Y106.94 E146.857
G1 X108.29 Y110.41 E146.996
G1 X111.75 Y113.87 E147.135
G1 X115.22 Y117.34 E147.273
G1 X118.69 Y120.81 E147.412
G1 X117.98 F7800
G1 X114.51 Y117.34 E147.551 F3600
G1 X111.04 Y113.87 E147.69
G1 X107.58 Y110.41 E147.829
G1 X104.11 Y106.94 E147.967
G1 X100.64 Y103.47 E148.106
G1 X97.17 Y100 E148.245
G1 X93.7 Y96.53 E148.384
G1 X90.23 Y93.06 E148.523
G1 X86.77 Y89.59 E148.662
G1 X83.3 Y86.13 E148.8
G1 X79.83 Y82.66 E148.939
G1 X76.36 Y79.19 E149.078
G1 X75.65 F7800
G1 X79.12 Y82.66 E149.217 F3600
G1 X82.59 Y86.13 E149.356
G1 X86.06 Y89.59 E149.494
G1 X89.52 Y93.06 E149.633
G1 X92.99 Y96.53 E149.772
G1 X96.46 Y100 E149.911
G1 X99.93 Y103.47 E150.049
G1 X103.4 Y106.94 E150.188
G1 X106.87 Y110.41 E150.327
G1 X110.33 Y113.87 E150.466
G1 X113.8 Y117.34 E150.604
G1 X117.27 Y120.81 E150.743
G1 X116.57 F7800
G1 X113.12 Y117.36 E150.881 F3600
G1 X109.67 Y113.91 E151.019
G1 X106.23 Y110.47 E151.157
G1 X102.78 Y107.02 E151.295
G1 X99.33 Y103.57 E151.433
G1 X95.88 Y100.12 E151.571
G1 X92.43 Y96.67 E151.709
G1 X88.98 Y93.22 E151.847
G1 X85.54 Y89.78 E151.985
G1 X82.09 Y86.33 E152.123
G1 X78.64 Y82.88 E152.261
G1 X75.19 Y79.43 E152.399
G1 Y80.14 F7800
G1 X78.58 Y83.53 E152.535 F3600
G1 X81.97 Y86.92 E152.67
G1 X85.36 Y90.31 E152.806
G1 X88.75 Y93.7 E152.941
G1 X92.14 Y97.09 E153.077
G1 X95.52 Y100.48 E153.213
G1 X98.91 Y103.86 E153.348
G1 X102.3 Y107.25 E153.484
G1 X105.69 Y110.64 E153.619
G1 X109.08 Y114.03 E153.755
G1 X112.47 Y117.42 E153.89
G1 X115.86 Y120.81 E154.026
G1 X115.15 F7800
G1 X111.82 Y117.48 E154.159 F3600
G1 X108.49 Y114.15 E154.293
G1 X105.16 Y110.82 E154.426
G1 X101.83 Y107.49 E154.559
G1 X98.5 Y104.16 E154.692
G1 X95.17 Y100.83 E154.826
G1 X91.84 Y97.5 E154.959
G1 X88.51 Y94.17 E155.092
G1 X85.18 Y90.84 E155.225
G1 X81.85 Y87.51 E155.359
G1 X78.52 Y84.18 E155.492
G1 X75.19 Y80.85 E155.625
G1 Y81.55 F7800
G1 X78.46 Y84.82 E155.756 F3600
G1 X81.73 Y88.09 E155.887
G1 X85.01 Y91.37 E156.018
G1 X88.28 Y94.64 E156.149
G1 X91.55 Y97.91 E156.28
G1 X94.82 Y101.18 E156.411
G1 X98.09 Y104.45 E156.541
G1 X101.36 Y107.72 E156.672
G1 X104.64 Y111 E156.803
G1 X107.91 Y114.27 E156.934
G1 X111.18 Y117.54 E157.065
G1 X114.45 Y120.81 E157.196
G1 X113.74 F7800
G1 X110.24 Y117.31 E157.336 F3600
G1 X106.73 Y113.8 E157.477
G1 X103.23 Y110.3 E157.617
G1 X99.72 Y106.79 E157.757
G1 X96.22 Y103.29 E157.897
G1 X92.71 Y99.78 E158.038
G1 X89.21 Y96.28 E158.178
G1 X85.7 Y92.77 E158.318
G1 X82.2 Y89.27 E158.458
G1 X78.69 Y85.76 E158.599
G1 X75.19 Y82.26 E158.739
G1 Y82.97 F7800
G1 X78.63 Y86.41 E158.877 F3600
G1 X82.07 Y89.85 E159.014
G1 X85.51 Y93.29 E159.152
G1 X88.95 Y96.73 E159.29
G1 X92.39 Y100.17 E159.427
G1 X95.83 Y103.61 E159.565
G1 X99.27 Y107.05 E159.702
G1 X102.71 Y110.49 E159.84
G1 X106.15 Y113.93 E159.978
G1 X109.59 Y117.37 E160.115
G1 X113.03 Y120.81 E160.253
G1 X112.32 F7800
G1 X108.94 Y117.43 E160.388 F3600
G1 X105.57 Y114.06 E160.523
G1 X102.19 Y110.68 E160.658
G1 X98.82 Y107.31 E160.793
G1 X95.44 Y103.93 E160.928
G1 X92.07 Y100.56 E161.064
G1 X88.69 Y97.18 E161.199
G1 X85.32 Y93.81 E161.334
G1 X81.94 Y90.43 E161.469
G1 X78.57 Y87.06 E161.604
G1 X75.19 Y83.68 E161.739
G1 Y84.38 F7800
G1 X78.5 Y87.69 E161.871 F3600
G1 X81.81 Y91 E162.004
G1 X85.13 Y94.32 E162.136
G1 X88.44 Y97.63 E162.269
G1 X91.75 Y100.94 E162.401
G1 X95.06 Y104.25 E162.534
G1 X98.37 Y107.56 E162.666
G1 X101.68 Y110.87 E162.799
G1 X105 Y114.19 E162.931
G1 X108.31 Y117.5 E163.064
G1 X111.62 Y120.81 E163.196
G1 X110.91 F7800
G1 X107.66 Y117.56 E163.326 F3600
G1 X104.42 Y114.32 E163.456
G1 X101.17 Y111.07 E163.586
G1 X97.92 Y107.82 E163.716
G1 X94.67 Y104.57 E163.846
G1 X91.43 Y101.33 E163.975
G1 X88.18 Y98.08 E164.105
G1 X84.93 Y94.83 E164.235
G1 X81.68 Y91.58 E164.365
G1 X78.44 Y88.34 E164.495
G1 X75.19 Y85.09 E164.625
G1 Y85.8 F7800
G1 X78.69 Y89.3 E164.765 F3600
G1 X82.19 Y92.8 E164.905
G1 X85.69 Y96.3 E165.045
G1 X89.19 Y99.8 E165.185
G1 X92.7 Y103.31 E165.326
G1 X96.2 Y106.81 E165.466
G1 X99.7 Y110.31 E165.606
G1 X103.2 Y113.81 E165.746
G1 X106.7 Y117.31 E165.886
G1 X110.2 Y120.81 E166.026
G1 X109.5 F7800
G1 X106.07 Y117.38 E166.163 F3600
G1 X102.64 Y113.95 E166.301
G1 X99.21 Y110.52 E166.438
G1 X95.78 Y107.09 E166.575
G1 X92.35 Y103.66 E166.713
G1 X88.91 Y100.22 E166.85
G1 X85.48 Y96.79 E166.987
G1 X82.05 Y93.36 E167.124
G1 X78.62 Y89.93 E167.262
G1 X75.19 Y86.5 E167.399
G1 Y87.21 F7800
G1 X78.55 Y90.57 E167.534 F3600
G1 X81.91 Y93.93 E167.668
G1 X85.27 Y97.29 E167.803
G1 X88.63 Y100.65 E167.937
G1 X91.99 Y104.01 E168.072
G1 X95.35 Y107.37 E168.206
G1 X98.71 Y110.73 E168.341
G1 X102.07 Y114.09 E168.475
G1 X105.43 Y117.45 E168.61
G1 X108.79 Y120.81 E168.744
G1 X108.08 F7800
G1 X104.79 Y117.52 E168.876 F3600
G1 X101.5 Y114.23 E169.007
G1 X98.21 Y110.94 E169.139
G1 X94.92 Y107.65 E169.27
G1 X91.64 Y104.37 E169.402
G1 X88.35 Y101.08 E169.534
G1 X85.06 Y97.79 E169.665
G1 X81.77 Y94.5 E169.797
G1 X78.48 Y91.21 E169.928
G1 X75.19 Y87.92 E170.06
G1 Y88.63 F7800
G1 X78.41 Y91.85 E170.189 F3600
G1 X81.63 Y95.07 E170.318
G1 X84.84 Y98.28 E170.446
G1 X88.06 Y101.5 E170.575
G1 X91.28 Y104.72 E170.704
G1 X94.5 Y107.94 E170.833
G1 X97.72 Y111.16 E170.962
G1 X100.93 Y114.37 E171.09
G1 X104.15 Y117.59 E171.219
G1 X107.37 Y120.81 E171.348
G1 X106.67 F7800
G1 X103.17 Y117.31 E171.488 F3600
G1 X99.67 Y113.81 E171.628
G1 X96.18 Y110.32 E171.768
G1 X92.68 Y106.82 E171.908
G1 X89.18 Y103.32 E172.047
G1 X85.68 Y99.82 E172.187
G1 X82.19 Y96.33 E172.327
G1 X78.69 Y92.83 E172.467
G1 X75.19 Y89.33 E172.607
G1 Y90.04 F7800
G1 X78.61 Y93.46 E172.744 F3600
G1 X82.03 Y96.88 E172.881
G1 X85.45 Y100.3 E173.017
G1 X88.87 Y103.72 E173.154
G1 X92.28 Y107.13 E173.291
G1 X95.7 Y110.55 E173.428
G1 X99.12 Y113.97 E173.564
G1 X102.54 Y117.39 E173.701
G1 X105.96 Y120.81 E173.838
G1 X105.25 F7800
G1 X101.91 Y117.47 E173.972 F3600
G1 X98.57 Y114.13 E174.105
G1 X95.23 Y110.79 E174.239
G1 X91.89 Y107.45 E174.373
G1 X88.55 Y104.11 E174.506
G1 X85.21 Y100.77 E174.64
G1 X81.87 Y97.43 E174.774
G1 X78.53 Y94.09 E174.907
G1 X75.19 Y90.75 E175.041
G1 Y91.45 F7800
G1 X78.45 Y94.71 E175.172 F3600
G1 X81.71 Y97.97 E175.302
G1 X84.98 Y101.24 E175.433
G1 X88.24 Y104.5 E175.563
G1 X91.5 Y107.76 E175.694
G1 X94.76 Y111.02 E175.824
G1 X98.03 Y114.29 E175.955
G1 X101.29 Y117.55 E176.085
G1 X104.55 Y120.81 E176.216
G1 X103.84 F7800
G1 X100.66 Y117.63 E176.343 F3600
G1 X97.47 Y114.44 E176.471
G1 X94.29 Y111.26 E176.598
G1 X91.11 Y108.08 E176.725
G1 X87.92 Y104.89 E176.853
G1 X84.74 Y101.71 E176.98
G1 X81.56 Y98.53 E177.107
G1 X78.37 Y95.34 E177.235
G1 X75.19 Y92.16 E177.362
G1 Y92.87 F7800
G1 X78.68 Y96.36 E177.502 F3600
G1 X82.18 Y99.86 E177.642
G1 X85.67 Y103.35 E177.781
G1 X89.16 Y106.84 E177.921
G1 X92.65 Y110.33 E178.061
G1 X96.15 Y113.83 E178.201
G1 X99.64 Y117.32 E178.34
G1 X103.13 Y120.81 E178.48
G1 X102.43 F7800
G1 X99.03 Y117.41 E178.616 F3600
G1 X95.62 Y114 E178.753
G1 X92.22 Y110.6 E178.889
G1 X88.81 Y107.19 E179.025
G1 X85.41 Y103.79 E179.161
G1 X82 Y100.38 E179.298
G1 X78.6 Y96.98 E179.434
G1 X75.19 Y93.57 E179.57
G1 Y94.28 F7800
G1 X78.51 Y97.6 E179.703 F3600
G1 X81.82 Y100.91 E179.836
G1 X85.14 Y104.23 E179.968
G1 X88.46 Y107.55 E180.101
G1 X91.77 Y110.86 E180.234
G1 X95.09 Y114.18 E180.367
G1 X98.4 Y117.49 E180.499
G1 X101.72 Y120.81 E180.632
G1 X101.01 F7800
G1 X97.78 Y117.58 E180.761 F3600
G1 X94.56 Y114.36 E180.89
G1 X91.33 Y111.13 E181.019
G1 X88.1 Y107.9 E181.149
G1 X84.87 Y104.67 E181.278
G1 X81.65 Y101.45 E181.407
G1 X78.42 Y98.22 E181.536
G1 X75.19 Y94.99 E181.665
G1 Y95.7 F7800
G1 X78.33 Y98.84 E181.791 F3600
G1 X81.47 Y101.98 E181.916
G1 X84.61 Y105.12 E182.042
G1 X87.75 Y108.26 E182.168
G1 X90.88 Y111.39 E182.293
G1 X94.02 Y114.53 E182.419
G1 X97.16 Y117.67 E182.544
G1 X100.3 Y120.81 E182.67
G1 X99.6 F7800
G1 X96.11 Y117.32 E182.809 F3600
G1 X92.63 Y113.84 E182.949
G1 X89.14 Y110.35 E183.088
G1 X85.65 Y106.86 E183.228
G1 X82.16 Y103.37 E183.367
G1 X78.68 Y99.89 E183.507
G1 X75.19 Y96.4 E183.646
G1 Y97.11 F7800
G1 X78.58 Y100.5 E183.781 F3600
G1 X81.96 Y103.88 E183.917
G1 X85.35 Y107.27 E184.052
G1 X88.73 Y110.65 E184.188
G1 X92.12 Y114.04 E184.323
G1 X95.5 Y117.42 E184.459
G1 X98.89 Y120.81 E184.594
G1 X98.18 F7800
G1 X94.9 Y117.53 E184.725 F3600
G1 X91.61 Y114.24 E184.857
G1 X88.33 Y110.96 E184.988
G1 X85.04 Y107.67 E185.12
G1 X81.76 Y104.39 E185.251
G1 X78.47 Y101.1 E185.383
G1 X75.19 Y97.82 E185.514
G1 Y98.52 F7800
G1 X78.37 Y101.7 E185.641 F3600
G1 X81.56 Y104.89 E185.769
G1 X84.74 Y108.07 E185.896
G1 X87.92 Y111.26 E186.024
G1 X91.1 Y114.44 E186.151
G1 X94.29 Y117.63 E186.279
G1 X97.47 Y120.81 E186.406
G1 X96.77 F7800
G1 X93.69 Y117.73 E186.529 F3600
G1 X90.6 Y114.64 E186.653
G1 X87.52 Y111.56 E186.776
G1 X84.44 Y108.48 E186.9
G1 X81.36 Y105.4 E187.023
G1 X78.27 Y102.31 E187.147
G1 X75.19 Y99.23 E187.27
G1 Y99.94 F7800
G1 X78.67 Y103.42 E187.409 F3600
G1 X82.15 Y106.9 E187.548
G1 X85.63 Y110.38 E187.688
G1 X89.1 Y113.85 E187.827
G1 X92.58 Y117.33 E187.966
G1 X96.06 Y120.81 E188.105
G1 X95.35 F7800
G1 X91.99 Y117.45 E188.239 F3600
G1 X88.63 Y114.09 E188.374
G1 X85.27 Y110.73 E188.508
G1 X81.91 Y107.37 E188.642
G1 X78.55 Y104.01 E188.777
G1 X75.19 Y100.65 E188.911
G1 Y101.35 F7800
G1 X78.43 Y104.59 E189.041 F3600
G1 X81.68 Y107.84 E189.171
G1 X84.92 Y111.08 E189.301
G1 X88.16 Y114.32 E189.43
G1 X91.41 Y117.57 E189.56
G1 X94.65 Y120.81 E189.69
G1 X93.94 F7800
G1 X90.82 Y117.69 E189.815 F3600
G1 X87.69 Y114.56 E189.94
G1 X84.57 Y111.44 E190.065
G1 X81.44 Y108.31 E190.19
G1 X78.32 Y105.19 E190.315
G1 X75.19 Y102.06 E190.44
G1 Y102.77 F7800
G1 X78.2 Y105.78 E190.56 F3600
G1 X81.2 Y108.78 E190.681
G1 X84.21 Y111.79 E190.801
G1 X87.22 Y114.8 E190.921
G1 X90.22 Y117.8 E191.042
G1 X93.23 Y120.81 E191.162
G1 X92.52 F7800
G1 X89.05 Y117.34 E191.301 F3600
G1 X85.59 Y113.87 E191.44
G1 X82.12 Y110.41 E191.578
G1 X78.66 Y106.94 E191.717
G1 X75.19 Y103.47 E191.856
G1 Y104.18 F7800
G1 X78.52 Y107.51 E191.989 F3600
G1 X81.84 Y110.83 E192.122
G1 X85.17 Y114.16 E192.255
G1 X88.49 Y117.48 E192.388
G1 X91.82 Y120.81 E192.521
G1 X91.11 F7800
G1 X87.93 Y117.63 E192.648 F3600
G1 X84.74 Y114.44 E192.776
G1 X81.56 Y111.26 E192.903
G1 X78.37 Y108.07 E193.031
G1 X75.19 Y104.89 E193.158
G1 Y105.6 F7800
G1 X78.23 Y108.64 E193.28 F3600
G1 X81.27 Y111.68 E193.402
G1 X84.32 Y114.73 E193.523
G1 X87.36 Y117.77 E193.645
G1 X90.4 Y120.81 E193.767
G1 X89.7 F7800
G1 X86.8 Y117.91 E193.883 F3600
G1 X83.9 Y115.01 E193.999
G1 X80.99 Y112.1 E194.116
G1 X78.09 Y109.2 E194.232
G1 X75.19 Y106.3 E194.348
G1 Y107.01 F7800
G1 X78.64 Y110.46 E194.486 F3600
G1 X82.09 Y113.91 E194.624
G1 X85.54 Y117.36 E194.762
G1 X88.99 Y120.81 E194.9
G1 X88.28 F7800
G1 X85.01 Y117.54 E195.031 F3600
G1 X81.74 Y114.27 E195.162
G1 X78.46 Y110.99 E195.293
G1 X75.19 Y107.72 E195.424
G1 Y108.42 F7800
G1 X78.29 Y111.52 E195.548 F3600
G1 X81.39 Y114.62 E195.672
G1 X84.48 Y117.71 E195.795
G1 X87.58 Y120.81 E195.919
G1 X86.87 F7800
G1 X83.95 Y117.89 E196.036 F3600
G1 X81.03 Y114.97 E196.153
G1 X78.11 Y112.05 E196.27
G1 X75.19 Y109.13 E196.387
G1 Y109.84 F7800
G1 X77.93 Y112.58 E196.497 F3600
G1 X80.68 Y115.33 E196.607
G1 X83.42 Y118.07 E196.716
G1 X86.16 Y120.81 E196.826
G1 X85.45 F7800
G1 X82.03 Y117.39 E196.963 F3600
G1 X78.61 Y113.96 E197.099
G1 X75.19 Y110.54 E197.236
G1 Y111.25 F7800
G1 X78.38 Y114.44 E197.364 F3600
G1 X81.56 Y117.62 E197.491
G1 X84.75 Y120.81 E197.619
G1 X84.04 F7800
G1 X81.09 Y117.86 E197.737 F3600
G1 X78.14 Y114.91 E197.855
G1 X75.19 Y111.96 E197.973
G1 Y112.67 F7800
G1 X77.9 Y115.38 E198.082 F3600
G1 X80.62 Y118.1 E198.19
G1 X83.33 Y120.81 E198.299
G1 X82.63 F7800
G1 X80.15 Y118.33 E198.398 F3600
G1 X77.67 Y115.85 E198.497
G1 X75.19 Y113.37 E198.596
G1 Y114.08 F7800
G1 X78.56 Y117.45 E198.731 F3600
G1 X81.92 Y120.81 E198.866
G1 X81.21 F7800
G1 X78.2 Y117.8 E198.987 F3600
G1 X75.19 Y114.79 E199.107
G1 Y115.49 F7800
G1 X77.85 Y118.15 E199.213 F3600
G1 X80.5 Y120.81 E199.319
G1 X79.8 F7800
G1 X77.5 Y118.51 E199.412 F3600
G1 X75.19 Y116.2 E199.504
G1 Y116.91 F7800
G1 X79.09 Y120.81 E199.66 F3600
G1 X78.38 F7800
G1 X75.19 Y117.62 E199.787 F3600
G1 Y118.32 F7800
G1 X77.68 Y120.81 E199.887 F3600
G1 X76.97 F7800
G1 X75.19 Y119.03 E199.958 F3600
G1 Y119.74 F7800
G1 X76.26 Y120.81 E200.001 F3600
G1 X75.55 F7800
G1 X75.19 Y120.44 E200.016 F3600
G1 E199.016 F1800
G1 X76.68 Y113.57 F7800
G1 X78.17 Y106.69
G1 X79.67 Y99.82
G1 X81.16 Y92.94
G1 X82.65 Y86.07
G1 X84.14 Y79.19
G1 E200.016 F1800
G1 X87.53 Y82.58 E200.152 F3600
G1 X90.92 Y85.97 E200.287
G1 X94.31 Y89.36 E200.423
G1 X97.7 Y92.75 E200.558
G1 X101.09 Y96.14 E200.694
G1 X104.48 Y99.53 E200.83
G1 X107.86 Y102.91 E200.965
G1 X111.25 Y106.3 E201.101
G1 X114.64 Y109.69 E201.236
G1 X118.03 Y113.08 E201.372
G1 X121.42 Y116.47 E201.507
G1 X124.81 Y119.86 E201.643
G1 Y119.15 F7800
G1 X121.48 Y115.82 E201.776 F3600
G1 X118.15 Y112.49 E201.91
G1 X114.82 Y109.16 E202.043
G1 X111.49 Y105.83 E202.176
G1 X108.16 Y102.5 E202.309
G1 X104.83 Y99.17 E202.443
G1 X101.5 Y95.84 E202.576
G1 X98.17 Y92.51 E202.709
G1 X94.84 Y89.18 E202.842
G1 X91.51 Y85.85 E202.976
G1 X88.18 Y82.52 E203.109
G1 X84.85 Y79.19 E203.242
G1 X85.55 F7800
G1 X88.82 Y82.46 E203.373 F3600
G1 X92.09 Y85.73 E203.504
G1 X95.37 Y89.01 E203.635
G1 X98.64 Y92.28 E203.766
G1 X101.91 Y95.55 E203.897
G1 X105.18 Y98.82 E204.028
G1 X108.45 Y102.09 E204.158
G1 X111.72 Y105.36 E204.289
G1 X115 Y108.64 E204.42
G1 X118.27 Y111.91 E204.551
G1 X121.54 Y115.18 E204.682
G1 X124.81 Y118.45 E204.813
G1 Y117.74 F7800
G1 X121.31 Y114.24 E204.953 F3600
G1 X117.8 Y110.73 E205.093
G1 X114.3 Y107.23 E205.234
G1 X110.79 Y103.72 E205.374
G1 X107.29 Y100.22 E205.514
G1 X103.78 Y96.71 E205.654
G1 X100.28 Y93.21 E205.794
G1 X96.77 Y89.7 E205.934
G1 X93.27 Y86.2 E206.075
G1 X89.76 Y82.69 E206.215
G1 X86.26 Y79.19 E206.355
G1 X86.97 F7800
G1 X90.41 Y82.63 E206.493 F3600
G1 X93.85 Y86.07 E206.63
G1 X97.29 Y89.51 E206.768
G1 X100.73 Y92.95 E206.906
G1 X104.17 Y96.39 E207.044
G1 X107.61 Y99.83 E207.181
G1 X111.05 Y103.27 E207.319
G1 X114.49 Y106.71 E207.457
G1 X117.93 Y110.15 E207.595
G1 X121.37 Y113.59 E207.732
G1 X124.81 Y117.03 E207.87
G1 Y116.32 F7800
G1 X121.43 Y112.94 E208.005 F3600
G1 X118.06 Y109.57 E208.14
G1 X114.68 Y106.19 E208.275
G1 X111.3 Y102.82 E208.41
G1 X107.93 Y99.44 E208.545
G1 X104.55 Y96.07 E208.681
G1 X101.18 Y92.69 E208.816
G1 X97.8 Y89.32 E208.951
G1 X94.42 Y85.94 E209.086
G1 X91.05 Y82.57 E209.221
G1 X87.67 Y79.19 E209.356
G1 X88.38 F7800
G1 X91.69 Y82.5 E209.488 F3600
G1 X95 Y85.81 E209.621
G1 X98.32 Y89.13 E209.753
G1 X101.63 Y92.44 E209.886
G1 X104.94 Y95.75 E210.018
G1 X108.25 Y99.06 E210.151
G1 X111.56 Y102.37 E210.283
G1 X114.87 Y105.68 E210.416
G1 X118.19 Y109 E210.548
G1 X121.5 Y112.31 E210.681
G1 X124.81 Y115.62 E210.813
G1 Y114.91 F7800
G1 X121.56 Y111.66 E210.943 F3600
G1 X118.32 Y108.42 E211.073
G1 X115.07 Y105.17 E211.203
G1 X111.82 Y101.92 E211.333
G1 X108.57 Y98.67 E211.463
G1 X105.33 Y95.43 E211.592
G1 X102.08 Y92.18 E211.722
G1 X98.83 Y88.93 E211.852
G1 X95.58 Y85.68 E211.982
G1 X92.34 Y82.44 E212.112
G1 X89.09 Y79.19 E212.242
G1 X89.8 F7800
G1 X93.3 Y82.69 E212.382 F3600
G1 X96.8 Y86.19 E212.522
G1 X100.3 Y89.69 E212.662
G1 X103.8 Y93.19 E212.802
G1 X107.31 Y96.7 E212.943
G1 X110.81 Y100.2 E213.083
G1 X114.31 Y103.7 E213.223
G1 X117.81 Y107.2 E213.363
G1 X121.31 Y110.7 E213.503
G1 X124.81 Y114.2 E213.643
G1 Y113.5 F7800
G1 X121.38 Y110.07 E213.78 F3600
G1 X117.95 Y106.64 E213.918
G1 X114.52 Y103.21 E214.055
G1 X111.09 Y99.78 E214.192
G1 X107.66 Y96.35 E214.33
G1 X104.22 Y92.91 E214.467
G1 X100.79 Y89.48 E214.604
G1 X97.36 Y86.05 E214.741
G1 X93.93 Y82.62 E214.879
G1 X90.5 Y79.19 E215.016
G1 X91.21 F7800
G1 X94.57 Y82.55 E215.151 F3600
G1 X97.93 Y85.91 E215.285
G1 X101.29 Y89.27 E215.42
G1 X104.65 Y92.63 E215.554
G1 X108.01 Y95.99 E215.689
G1 X111.37 Y99.35 E215.823
G1 X114.73 Y102.71 E215.958
G1 X118.09 Y106.07 E216.092
G1 X121.45 Y109.43 E216.227
G1 X124.81 Y112.79 E216.361
G1 Y112.08 F7800
G1 X121.52 Y108.79 E216.493 F3600
G1 X118.23 Y105.5 E216.624
G1 X114.94 Y102.21 E216.756
G1 X111.65 Y98.92 E216.887
G1 X108.37 Y95.64 E217.019
G1 X105.08 Y92.35 E217.151
G1 X101.79 Y89.06 E217.282
G1 X98.5 Y85.77 E217.414
G1 X95.21 Y82.48 E217.545
G1 X91.92 Y79.19 E217.677
G1 X92.62 F7800
G1 X95.84 Y82.41 E217.806 F3600
G1 X99.06 Y85.63 E217.935
G1 X102.28 Y88.84 E218.063
G1 X105.5 Y92.06 E218.192
G1 X108.72 Y95.28 E218.321
G1 X111.93 Y98.5 E218.45
G1 X115.15 Y101.72 E218.579
G1 X118.37 Y104.93 E218.707
G1 X121.59 Y108.15 E218.836
G1 X124.81 Y111.37 E218.965
G1 Y110.67 F7800
G1 X121.31 Y107.17 E219.105 F3600
G1 X117.81 Y103.67 E219.245
G1 X114.32 Y100.18 E219.385
G1 X110.82 Y96.68 E219.525
G1 X107.32 Y93.18 E219.664
G1 X103.82 Y89.68 E219.804
G1 X100.33 Y86.19 E219.944
G1 X96.83 Y82.69 E220.084
G1 X93.33 Y79.19 E220.224
G1 X94.04 F7800
G1 X97.46 Y82.61 E220.361 F3600
G1 X100.88 Y86.03 E220.498
G1 X104.3 Y89.45 E220.634
G1 X107.72 Y92.87 E220.771
G1 X111.13 Y96.28 E220.908
G1 X114.55 Y99.7 E221.045
G1 X117.97 Y103.12 E221.181
G1 X121.39 Y106.54 E221.318
G1 X124.81 Y109.96 E221.455
G1 Y109.25 F7800
G1 X121.47 Y105.91 E221.589 F3600
G1 X118.13 Y102.57 E221.722
G1 X114.79 Y99.23 E221.856
G1 X111.45 Y95.89 E221.99
G1 X108.11 Y92.55 E222.123
G1 X104.77 Y89.21 E222.257
G1 X101.43 Y85.87 E222.391
G1 X98.09 Y82.53 E222.524
G1 X94.75 Y79.19 E222.658
G1 X95.45 F7800
G1 X98.71 Y82.45 E222.789 F3600
G1 X101.97 Y85.71 E222.919
G1 X105.24 Y88.98 E223.05
G1 X108.5 Y92.24 E223.18
G1 X111.76 Y95.5 E223.311
G1 X115.02 Y98.76 E223.441
G1 X118.29 Y102.03 E223.572
G1 X121.55 Y105.29 E223.702
G1 X124.81 Y108.55 E223.833
G1 Y107.84 F7800
G1 X121.63 Y104.66 E223.96 F3600
G1 X118.44 Y101.47 E224.088
G1 X115.26 Y98.29 E224.215
G1 X112.08 Y95.11 E224.342
G1 X108.89 Y91.92 E224.47
G1 X105.71 Y88.74 E224.597
G1 X102.53 Y85.56 E224.724
G1 X99.34 Y82.37 E224.852
G1 X96.16 Y79.19 E224.979
G1 X96.87 F7800
G1 X100.36 Y82.68 E225.119 F3600
G1 X103.86 Y86.18 E225.259
G1 X107.35 Y89.67 E225.398
G1 X110.84 Y93.16 E225.538
G1 X114.33 Y96.65 E225.678
G1 X117.83 Y100.15 E225.818
G1 X121.32 Y103.64 E225.957
G1 X124.81 Y107.13 E226.097
G1 Y106.42 F7800
G1 X121.41 Y103.02 E226.233 F3600
G1 X118 Y99.61 E226.37
G1 X114.6 Y96.21 E226.506
G1 X111.19 Y92.81 E226.642
G1 X107.79 Y89.4 E226.778
G1 X104.38 Y86 E226.915
G1 X100.98 Y82.59 E227.051
G1 X97.57 Y79.19 E227.187
G1 X98.28 F7800
G1 X101.6 Y82.51 E227.32 F3600
G1 X104.91 Y85.82 E227.453
G1 X108.23 Y89.14 E227.585
G1 X111.55 Y92.46 E227.718
G1 X114.86 Y95.77 E227.851
G1 X118.18 Y99.09 E227.984
G1 X121.49 Y102.4 E228.116
G1 X124.81 Y105.72 E228.249
G1 Y105.01 F7800
G1 X121.58 Y101.78 E228.378 F3600
G1 X118.36 Y98.56 E228.507
G1 X115.13 Y95.33 E228.636
G1 X111.9 Y92.1 E228.766
G1 X108.67 Y88.87 E228.895
G1 X105.45 Y85.65 E229.024
G1 X102.22 Y82.42 E229.153
G1 X98.99 Y79.19 E229.282
G1 X99.7 F7800
G1 X102.84 Y82.33 E229.408 F3600
G1 X105.98 Y85.47 E229.533
G1 X109.12 Y88.61 E229.659
G1 X112.26 Y91.75 E229.785
G1 X115.39 Y94.88 E229.91
G1 X118.53 Y98.02 E230.036
G1 X121.67 Y101.16 E230.161
G1 X124.81 Y104.3 E230.287
G1 Y103.6 F7800
G1 X121.32 Y100.11 E230.427 F3600
G1 X117.84 Y96.63 E230.566
G1 X114.35 Y93.14 E230.706
G1 X110.86 Y89.65 E230.845
G1 X107.37 Y86.16 E230.985
G1 X103.89 Y82.68 E231.124
G1 X100.4 Y79.19 E231.264
G1 X101.11 F7800
G1 X104.5 Y82.58 E231.399 F3600
G1 X107.88 Y85.96 E231.535
G1 X111.27 Y89.35 E231.67
G1 X114.65 Y92.73 E231.806
G1 X118.04 Y96.12 E231.941
G1 X121.42 Y99.5 E232.077
G1 X124.81 Y102.89 E232.212
G1 Y102.18 F7800
G1 X121.53 Y98.9 E232.343 F3600
G1 X118.24 Y95.61 E232.475
G1 X114.96 Y92.33 E232.606
G1 X111.67 Y89.04 E232.738
G1 X108.39 Y85.76 E232.869
G1 X105.1 Y82.47 E233.001
G1 X101.82 Y79.19 E233.132
G1 X102.52 F7800
G1 X105.7 Y82.37 E233.259 F3600
G1 X108.89 Y85.56 E233.387
G1 X112.07 Y88.74 E233.514
G1 X115.26 Y91.92 E233.642
G1 X118.44 Y95.1 E233.769
G1 X121.63 Y98.29 E233.897
G1 X124.81 Y101.47 E234.024
G1 Y100.77 F7800
G1 X121.73 Y97.69 E234.147 F3600
G1 X118.64 Y94.6 E234.271
G1 X115.56 Y91.52 E234.394
G1 X112.48 Y88.44 E234.517
G1 X109.4 Y85.36 E234.64
G1 X106.31 Y82.27 E234.764
G1 X103.23 Y79.19 E234.887
G1 X103.94 F7800
G1 X107.42 Y82.67 E235.026 F3600
G1 X110.9 Y86.15 E235.165
G1 X114.38 Y89.63 E235.305
G1 X117.85 Y93.1 E235.444
G1 X121.33 Y96.58 E235.583
G1 X124.81 Y100.06 E235.722
G1 Y99.35 F7800
G1 X121.45 Y95.99 E235.857 F3600
G1 X118.09 Y92.63 E235.991
G1 X114.73 Y89.27 E236.126
G1 X111.37 Y85.91 E236.26
G1 X108.01 Y82.55 E236.395
G1 X104.65 Y79.19 E236.529
G1 X105.35 F7800
G1 X108.59 Y82.43 E236.659 F3600
G1 X111.84 Y85.68 E236.788
G1 X115.08 Y88.92 E236.918
G1 X118.32 Y92.16 E237.048
G1 X121.57 Y95.41 E237.177
G1 X124.81 Y98.65 E237.307
G1 Y97.94 F7800
G1 X121.69 Y94.82 E237.432 F3600
G1 X118.56 Y91.69 E237.557
G1 X115.44 Y88.57 E237.683
G1 X112.31 Y85.44 E237.808
G1 X109.19 Y82.32 E237.933
G1 X106.06 Y79.19 E238.058
G1 X106.77 F7800
G1 X109.78 Y82.2 E238.178 F3600
G1 X112.78 Y85.2 E238.299
G1 X115.79 Y88.21 E238.419
G1 X118.8 Y91.22 E238.539
G1 X121.8 Y94.22 E238.66
G1 X124.81 Y97.23 E238.78
G1 Y96.53 F7800
G1 X121.34 Y93.06 E238.919 F3600
G1 X117.87 Y89.59 E239.057
G1 X114.41 Y86.13 E239.196
G1 X110.94 Y82.66 E239.334
G1 X107.47 Y79.19 E239.473
G1 X108.18 F7800
G1 X111.51 Y82.52 E239.606 F3600
G1 X114.83 Y85.84 E239.739
G1 X118.16 Y89.17 E239.873
G1 X121.48 Y92.49 E240.006
G1 X124.81 Y95.82 E240.139
G1 Y95.11 F7800
G1 X121.63 Y91.93 E240.266 F3600
G1 X118.44 Y88.74 E240.394
G1 X115.26 Y85.56 E240.521
G1 X112.07 Y82.37 E240.649
G1 X108.89 Y79.19 E240.776
G1 X109.6 F7800
G1 X112.64 Y82.23 E240.898 F3600
G1 X115.68 Y85.27 E241.02
G1 X118.73 Y88.32 E241.141
G1 X121.77 Y91.36 E241.263
G1 X124.81 Y94.4 E241.385
G1 Y93.7 F7800
G1 X121.91 Y90.8 E241.501 F3600
G1 X119.01 Y87.9 E241.617
G1 X116.1 Y84.99 E241.733
G1 X113.2 Y82.09 E241.849
G1 X110.3 Y79.19 E241.965
G1 X111.01 F7800
G1 X114.46 Y82.64 E242.103 F3600
G1 X117.91 Y86.09 E242.241
G1 X121.36 Y89.54 E242.379
G1 X124.81 Y92.99 E242.517
G1 Y92.28 F7800
G1 X121.54 Y89.01 E242.648 F3600
G1 X118.27 Y85.74 E242.779
G1 X114.99 Y82.46 E242.91
G1 X111.72 Y79.19 E243.041
G1 X112.42 F7800
G1 X115.52 Y82.29 E243.165 F3600
G1 X118.62 Y85.39 E243.289
G1 X121.71 Y88.48 E243.413
G1 X124.81 Y91.58 E243.537
G1 Y90.87 F7800
G1 X121.89 Y87.95 E243.654 F3600
G1 X118.97 Y85.03 E243.771
G1 X116.05 Y82.11 E243.887
G1 X113.13 Y79.19 E244.004
G1 X113.84 F7800
G1 X116.58 Y81.93 E244.114 F3600
G1 X119.33 Y84.68 E244.224
G1 X122.07 Y87.42 E244.333
G1 X124.81 Y90.16 E244.443
G1 Y89.45 F7800
G1 X121.39 Y86.03 E244.58 F3600
G1 X117.96 Y82.61 E244.717
G1 X114.54 Y79.19 E244.854
G1 X115.25 F7800
G1 X118.44 Y82.38 E244.981 F3600
G1 X121.62 Y85.56 E245.109
G1 X124.81 Y88.75 E245.236
G1 Y88.04 F7800
G1 X121.86 Y85.09 E245.354 F3600
G1 X118.91 Y82.14 E245.472
G1 X115.96 Y79.19 E245.59
G1 X116.67 F7800
G1 X119.38 Y81.9 E245.699 F3600
G1 X122.1 Y84.62 E245.807
G1 X124.81 Y87.33 E245.916
G1 Y86.63 F7800
G1 X122.33 Y84.15 E246.015 F3600
G1 X119.85 Y81.67 E246.115
G1 X117.37 Y79.19 E246.214
G1 X118.08 F7800
G1 X121.45 Y82.56 E246.349 F3600
G1 X124.81 Y85.92 E246.483
G1 Y85.21 F7800
G1 X121.8 Y82.2 E246.604 F3600
G1 X118.79 Y79.19 E246.724
G1 X119.49 F7800
G1 X122.15 Y81.85 E246.831 F3600
G1 X124.81 Y84.5 E246.937
G1 Y83.8 F7800
G1 X122.51 Y81.5 E247.029 F3600
G1 X120.2 Y79.19 E247.121
G1 X120.91 F7800
G1 X124.81 Y83.09 E247.277 F3600
G1 Y82.38 F7800
G1 X121.62 Y79.19 E247.405 F3600
G1 X122.32 F7800
G1 X124.81 Y81.68 E247.504 F3600
G1 Y80.97 F7800
G1 X123.03 Y79.19 E247.576 F3600
G1 X123.74 F7800
G1 X124.81 Y80.26 E247.618 F3600
G1 Y79.55 F7800
G1 X124.44 Y79.19 E247.633 F3600
; Layer Change GCode
; LAYER:2
; LAYER_HEIGHT:0.4
; TYPE:FILL
G1 X125.75 Y78.25 Z1.1 F7800
; TYPE:WALL-INNER
G1 Y83.08 E247.77 F1800
G1 Y87.92 E247.907
G1 Y92.75 E248.043
G1 Y97.58 E248.18
G1 Y102.42 E248.317
G1 Y107.25 E248.454
G1 Y112.08 E248.59
G1 Y116.92 E248.727
G1 Y121.75 E248.864
G1 X121.07 E248.996
G1 X116.39 E249.129
G1 X111.7 E249.261
G1 X107.02 E249.394
G1 X102.34 E249.526
G1 X97.66 E249.659
G1 X92.98 E249.791
G1 X88.3 E249.924
G1 X83.61 E250.056
G1 X78.93 E250.189
G1 X74.25 E250.321
G1 Y116.92 E250.458
G1 Y112.08 E250.595
G1 Y107.25 E250.731
G1 Y102.42 E250.868
G1 Y97.58 E251.005
G1 Y92.75 E251.142
G1 Y87.92 E251.278
G1 Y83.08 E251.415
G1 Y78.25 E251.552
G1 X78.93 E251.684
G1 X83.6 E251.817
G1 X88.28 E251.949
G1 X92.96 E252.081
G1 X97.64 E252.214
G1 X102.31 E252.346
G1 X106.99 E252.479
G1 X111.67 E252.611
G1 X116.35 E252.743
G1 X121.02 E252.876
G1 X125.7 E253.008
G1 X125.75
G1 X126.25 Y77.75 F7800
G1 Y82.69 E253.148 F1800
G1 Y87.64 E253.288
G1 Y92.58 E253.428
G1 Y97.53 E253.568
G1 Y102.47 E253.707
G1 Y107.42 E253.847
G1 Y112.36 E253.987
G1 Y117.31 E254.127
G1 Y122.25 E254.267
G1 X121.48 E254.402
G1 X116.7 E254.537
G1 X111.93 E254.672
G1 X107.16 E254.807
G1 X102.39 E254.942
G1 X97.61 E255.077
G1 X92.84 E255.212
G1 X88.07 E255.347
G1 X83.3 E255.482
G1 X78.52 E255.617
G1 X73.75 E255.752
G1 Y117.31 E255.892
G1 Y112.36 E256.032
G1 Y107.42 E256.172
G1 Y102.47 E256.312
G1 Y97.53 E256.451
G1 Y92.58 E256.591
G1 Y87.64 E256.731
G1 Y82.69 E256.871
G1 Y77.75 E257.011
G1 X78.52 E257.146
G1 X83.29 E257.281
G1 X88.05 E257.416
G1 X92.82 E257.551
G1 X97.59 E257.686
G1 X102.36 E257.82
G1 X107.13 E257.955
G1 X111.9 E258.09
G1 X116.66 E258.225
G1 X121.43 E258.36
G1 X126.2 E258.495
G1 X126.25
G1 X126.75 Y77.25 F7800
; TYPE:WALL-OUTER
G1 Y81.8 E258.624 F1260
G1 Y86.35 E258.753
G1 Y90.9 E258.881
G1 Y95.45 E259.01
G1 Y100 E259.139
G1 Y104.55 E259.268
G1 Y109.1 E259.397
G1 Y113.65 E259.525
G1 Y118.2 E259.654
G1 Y122.75 E259.783
G1 X121.89 E259.921
G1 X117.02 E260.058
G1 X112.16 E260.196
G1 X107.3 E260.333
G1 X102.43 E260.471
G1 X97.57 E260.608
G1 X92.7 E260.746
G1 X87.84 E260.883
G1 X82.98 E261.021
G1 X78.11 E261.158
G1 X73.25 E261.296
G1 Y118.2 E261.425
G1 Y113.65 E261.554
G1 Y109.1 E261.682
G1 Y104.55 E261.811
G1 Y100 E261.94
G1 Y95.45 E262.069
G1 Y90.9 E262.198
G1 Y86.35 E262.326
G1 Y81.8 E262.455
G1 Y77.25 E262.584
G1 X78.11 E262.721
G1 X82.97 E262.859
G1 X87.83 E262.996
G1 X92.69 E263.134
G1 X97.55 E263.271
G1 X102.4 E263.409
G1 X107.26 E263.546
G1 X112.12 E263.684
G1 X116.98 E263.821
G1 X121.84 E263.959
G1 X126.7 E264.096
G1 X126.75
G1 Y80.25
G1 X125.75 Y78.25 F7800
G1 X124.96 Y78.69
; TYPE:FILL
G1 X121.68 Y81.97 E264.227 F3600
G1 X118.4 Y85.25 E264.358
G1 X115.12 Y88.53 E264.49
G1 X111.85 Y91.8 E264.621
G1 X108.57 Y95.08 E264.752
G1 X105.29 Y98.36 E264.883
G1 X102.01 Y101.64 E265.015
G1 X98.73 Y104.92 E265.146
G1 X95.45 Y108.2 E265.277
G1 X92.18 Y111.47 E265.408
G1 X88.9 Y114.75 E265.54
G1 X85.62 Y118.03 E265.671
G1 X82.34 Y121.31 E265.802
G1 X81.63 F7800
G1 X84.91 Y118.03 E265.933 F3600
G1 X88.19 Y114.75 E266.064
G1 X91.47 Y111.47 E266.195
G1 X94.74 Y108.2 E266.327
G1 X98.02 Y104.92 E266.458
G1 X101.3 Y101.64 E266.589
G1 X104.58 Y98.36 E266.72
G1 X107.86 Y95.08 E266.851
G1 X111.14 Y91.8 E266.982
G1 X114.41 Y88.53 E267.114
G1 X117.69 Y85.25 E267.245
G1 X120.97 Y81.97 E267.376
G1 X124.25 Y78.69 E267.507
G1 X123.54 F7800
G1 X120.26 Y81.97 E267.638 F3600
G1 X116.98 Y85.25 E267.769
G1 X113.7 Y88.53 E267.9
G1 X110.43 Y91.8 E268.032
G1 X107.15 Y95.08 E268.163
G1 X103.87 Y98.36 E268.294
G1 X100.59 Y101.64 E268.425
G1 X97.31 Y104.92 E268.556
G1 X94.03 Y108.2 E268.687
G1 X90.76 Y111.47 E268.819
G1 X87.48 Y114.75 E268.95
G1 X84.2 Y118.03 E269.081
G1 X80.92 Y121.31 E269.212
G1 X80.22 F7800
G1 X83.5 Y118.03 E269.343 F3600
G1 X86.78 Y114.75 E269.474
G1 X90.06 Y111.47 E269.606
G1 X93.33 Y108.2 E269.737
G1 X96.61 Y104.92 E269.868
G1 X99.89 Y101.64 E269.999
G1 X103.17 Y98.36 E270.131
G1 X106.45 Y95.08 E270.262
G1 X109.73 Y91.8 E270.393
G1 X113 Y88.53 E270.524
G1 X116.28 Y85.25 E270.656
G1 X119.56 Y81.97 E270.787
G1 X122.84 Y78.69 E270.918
G1 X122.13 F7800
G1 X118.85 Y81.97 E271.049 F3600
G1 X115.57 Y85.25 E271.18
G1 X112.29 Y88.53 E271.311
G1 X109.02 Y91.8 E271.443
G1 X105.74 Y95.08 E271.574
G1 X102.46 Y98.36 E271.705
G1 X99.18 Y101.64 E271.836
G1 X95.9 Y104.92 E271.967
G1 X92.62 Y108.2 E272.098
G1 X89.35 Y111.47 E272.23
G1 X86.07 Y114.75 E272.361
G1 X82.79 Y118.03 E272.492
G1 X79.51 Y121.31 E272.623
G1 X78.8 F7800
G1 X82.08 Y118.03 E272.754 F3600
G1 X85.36 Y114.75 E272.885
G1 X88.64 Y111.47 E273.016
G1 X91.91 Y108.2 E273.148
G1 X95.19 Y104.92 E273.279
G1 X98.47 Y101.64 E273.41
G1 X101.75 Y98.36 E273.541
G1 X105.03 Y95.08 E273.672
G1 X108.31 Y91.8 E273.803
G1 X111.58 Y88.53 E273.935
G1 X114.86 Y85.25 E274.066
G1 X118.14 Y81.97 E274.197
G1 X121.42 Y78.69 E274.328
G1 X120.71 F7800
G1 X117.43 Y81.97 E274.459 F3600
G1 X114.15 Y85.25 E274.59
G1 X110.87 Y88.53 E274.722
G1 X107.6 Y91.8 E274.853
G1 X104.32 Y95.08 E274.984
G1 X101.04 Y98.36 E275.115
G1 X97.76 Y101.64 E275.247
G1 X94.48 Y104.92 E275.378
G1 X91.2 Y108.2 E275.509
G1 X87.93 Y111.47 E275.64
G1 X84.65 Y114.75 E275.772
G1 X81.37 Y118.03 E275.903
G1 X78.09 Y121.31 E276.034
G1 X77.39 F7800
G1 X80.67 Y118.03 E276.165 F3600
G1 X83.95 Y114.75 E276.296
G1 X87.23 Y111.47 E276.427
G1 X90.5 Y108.2 E276.559
G1 X93.78 Y104.92 E276.69
G1 X97.06 Y101.64 E276.821
G1 X100.34 Y98.36 E276.952
G1 X103.62 Y95.08 E277.083
G1 X106.9 Y91.8 E277.214
G1 X110.17 Y88.53 E277.346
G1 X113.45 Y85.25 E277.477
G1 X116.73 Y81.97 E277.608
G1 X120.01 Y78.69 E277.739
G1 X119.3 F7800
G1 X116.02 Y81.97 E277.87 F3600
G1 X112.74 Y85.25 E278.001
G1 X109.46 Y88.53 E278.133
G1 X106.19 Y91.8 E278.264
G1 X102.91 Y95.08 E278.395
G1 X99.63 Y98.36 E278.526
G1 X96.35 Y101.64 E278.658
G1 X93.07 Y104.92 E278.789
G1 X89.79 Y108.2 E278.92
G1 X86.52 Y111.47 E279.051
G1 X83.24 Y114.75 E279.183
G1 X79.96 Y118.03 E279.314
G1 X76.68 Y121.31 E279.445
G1 X75.97 F7800
G1 X79.25 Y118.03 E279.576 F3600
G1 X82.53 Y114.75 E279.707
G1 X85.81 Y111.47 E279.838
G1 X89.08 Y108.2 E279.97
G1 X92.36 Y104.92 E280.101
G1 X95.64 Y101.64 E280.232
G1 X98.92 Y98.36 E280.363
G1 X102.2 Y95.08 E280.494
G1 X105.48 Y91.8 E280.625
G1 X108.75 Y88.53 E280.757
G1 X112.03 Y85.25 E280.888
G1 X115.31 Y81.97 E281.019
G1 X118.59 Y78.69 E281.15
G1 X117.89 F7800
G1 X114.61 Y81.97 E281.281 F3600
G1 X111.33 Y85.25 E281.412
G1 X108.05 Y88.53 E281.543
G1 X104.78 Y91.8 E281.675
G1 X101.5 Y95.08 E281.806
G1 X98.22 Y98.36 E281.937
G1 X94.94 Y101.64 E282.068
G1 X91.66 Y104.92 E282.199
G1 X88.38 Y108.2 E282.33
G1 X85.11 Y111.47 E282.462
G1 X81.83 Y114.75 E282.593
G1 X78.55 Y118.03 E282.724
G1 X75.27 Y121.31 E282.855
G1 X74.69 Y121.18 F7800
G1 X77.96 Y117.91 E282.986 F3600
G1 X81.23 Y114.64 E283.117
G1 X84.5 Y111.37 E283.248
G1 X87.76 Y108.11 E283.378
G1 X91.03 Y104.84 E283.509
G1 X94.3 Y101.57 E283.64
G1 X97.57 Y98.3 E283.771
G1 X100.84 Y95.03 E283.902
G1 X104.11 Y91.76 E284.033
G1 X107.37 Y88.5 E284.163
G1 X110.64 Y85.23 E284.294
G1 X113.91 Y81.96 E284.425
G1 X117.18 Y78.69 E284.556
G1 X116.47 F7800
G1 X112.99 Y82.17 E284.695 F3600
G1 X109.51 Y85.65 E284.835
G1 X106.03 Y89.14 E284.974
G1 X102.54 Y92.62 E285.113
G1 X99.06 Y96.1 E285.253
G1 X95.58 Y99.58 E285.392
G1 X92.1 Y103.06 E285.531
G1 X88.62 Y106.54 E285.671
G1 X85.14 Y110.03 E285.81
G1 X81.65 Y113.51 E285.949
G1 X78.17 Y116.99 E286.089
G1 X74.69 Y120.47 E286.228
G1 Y119.76 F7800
G1 X78.11 Y116.34 E286.365 F3600
G1 X81.54 Y112.92 E286.502
G1 X84.96 Y109.49 E286.639
G1 X88.38 Y106.07 E286.776
G1 X91.8 Y102.65 E286.913
G1 X95.23 Y99.23 E287.05
G1 X98.65 Y95.8 E287.186
G1 X102.07 Y92.38 E287.323
G1 X105.49 Y88.96 E287.46
G1 X108.92 Y85.54 E287.597
G1 X112.34 Y82.11 E287.734
G1 X115.76 Y78.69 E287.871
G1 X115.06 F7800
G1 X111.7 Y82.05 E288.006 F3600
G1 X108.33 Y85.42 E288.14
G1 X104.97 Y88.78 E288.275
G1 X101.6 Y92.15 E288.409
G1 X98.24 Y95.51 E288.544
G1 X94.88 Y98.88 E288.679
G1 X91.51 Y102.24 E288.813
G1 X88.15 Y105.6 E288.948
G1 X84.78 Y108.97 E289.082
G1 X81.42 Y112.33 E289.217
G1 X78.05 Y115.7 E289.351
G1 X74.69 Y119.06 E289.486
G1 Y118.35 F7800
G1 X78 Y115.05 E289.618 F3600
G1 X81.3 Y111.74 E289.751
G1 X84.61 Y108.44 E289.883
G1 X87.91 Y105.13 E290.015
G1 X91.22 Y101.83 E290.147
G1 X94.52 Y98.52 E290.28
G1 X97.83 Y95.21 E290.412
G1 X101.13 Y91.91 E290.544
G1 X104.44 Y88.6 E290.676
G1 X107.74 Y85.3 E290.809
G1 X111.05 Y81.99 E290.941
G1 X114.35 Y78.69 E291.073
G1 X113.64 F7800
G1 X110.39 Y81.94 E291.203 F3600
G1 X107.15 Y85.18 E291.333
G1 X103.9 Y88.43 E291.463
G1 X100.66 Y91.67 E291.593
G1 X97.41 Y94.92 E291.723
G1 X94.17 Y98.16 E291.853
G1 X90.92 Y101.41 E291.982
G1 X87.67 Y104.66 E292.112
G1 X84.43 Y107.9 E292.242
G1 X81.18 Y111.15 E292.372
G1 X77.94 Y114.39 E292.502
G1 X74.69 Y117.64 E292.632
G1 Y116.94 F7800
G1 X78.17 Y113.46 E292.771 F3600
G1 X81.64 Y109.99 E292.91
G1 X85.12 Y106.51 E293.049
G1 X88.6 Y103.03 E293.188
G1 X92.08 Y99.55 E293.327
G1 X95.55 Y96.08 E293.467
G1 X99.03 Y92.6 E293.606
G1 X102.51 Y89.12 E293.745
G1 X105.99 Y85.64 E293.884
G1 X109.46 Y82.17 E294.023
G1 X112.94 Y78.69 E294.162
G1 X112.23 F7800
G1 X108.82 Y82.1 E294.299 F3600
G1 X105.4 Y85.52 E294.435
G1 X101.99 Y88.93 E294.572
G1 X98.58 Y92.34 E294.709
G1 X95.17 Y95.75 E294.845
G1 X91.75 Y99.17 E294.982
G1 X88.34 Y102.58 E295.118
G1 X84.93 Y105.99 E295.255
G1 X81.52 Y109.4 E295.392
G1 X78.1 Y112.82 E295.528
G1 X74.69 Y116.23 E295.665
G1 Y115.52 F7800
G1 X78.04 Y112.17 E295.799 F3600
G1 X81.39 Y108.82 E295.933
G1 X84.73 Y105.48 E296.067
G1 X88.08 Y102.13 E296.201
G1 X91.43 Y98.78 E296.335
G1 X94.78 Y95.43 E296.468
G1 X98.13 Y92.08 E296.602
G1 X101.48 Y88.73 E296.736
G1 X104.82 Y85.39 E296.87
G1 X108.17 Y82.04 E297.004
G1 X111.52 Y78.69 E297.138
G1 X110.81 F7800
G1 X107.53 Y81.97 E297.269 F3600
G1 X104.24 Y85.26 E297.401
G1 X100.96 Y88.54 E297.532
G1 X97.68 Y91.83 E297.664
G1 X94.39 Y95.11 E297.795
G1 X91.11 Y98.4 E297.927
G1 X87.82 Y101.68 E298.058
G1 X84.54 Y104.97 E298.19
G1 X81.26 Y108.25 E298.321
G1 X77.97 Y111.54 E298.453
G1 X74.69 Y114.82 E298.584
G1 Y114.11 F7800
G1 X77.91 Y110.89 E298.713 F3600
G1 X81.13 Y107.67 E298.842
G1 X84.35 Y104.45 E298.97
G1 X87.57 Y101.23 E299.099
G1 X90.79 Y98.01 E299.228
G1 X94.01 Y94.79 E299.357
G1 X97.23 Y91.57 E299.486
G1 X100.45 Y88.35 E299.615
G1 X103.67 Y85.13 E299.743
G1 X106.89 Y81.91 E299.872
G1 X110.11 Y78.69 E300.001
G1 X109.4 F7800
G1 X105.93 Y82.16 E300.14 F3600
G1 X102.46 Y85.63 E300.279
G1 X98.99 Y89.1 E300.418
G1 X95.52 Y92.57 E300.557
G1 X92.05 Y96.05 E300.696
G1 X88.57 Y99.52 E300.834
G1 X85.1 Y102.99 E300.973
G1 X81.63 Y106.46 E301.112
G1 X78.16 Y109.93 E301.251
G1 X74.69 Y113.4 E301.39
G1 Y112.69 F7800
G1 X78.09 Y109.29 E301.526 F3600
G1 X81.49 Y105.89 E301.662
G1 X84.89 Y102.49 E301.798
G1 X88.29 Y99.09 E301.934
G1 X91.69 Y95.69 E302.071
G1 X95.09 Y92.29 E302.207
G1 X98.49 Y88.89 E302.343
G1 X101.89 Y85.49 E302.479
G1 X105.29 Y82.09 E302.615
G1 X108.69 Y78.69 E302.751
G1 X107.99 F7800
G1 X104.66 Y82.02 E302.884 F3600
G1 X101.33 Y85.35 E303.017
G1 X98 Y88.68 E303.151
G1 X94.67 Y92.01 E303.284
G1 X91.34 Y95.34 E303.417
G1 X88.01 Y98.67 E303.55
G1 X84.68 Y102 E303.683
G1 X81.35 Y105.33 E303.817
G1 X78.02 Y108.66 E303.95
G1 X74.69 Y111.99 E304.083
G1 Y111.28 F7800
G1 X77.95 Y108.02 E304.213 F3600
G1 X81.21 Y104.76 E304.344
G1 X84.47 Y101.5 E304.474
G1 X87.73 Y98.24 E304.605
G1 X90.99 Y94.99 E304.735
G1 X94.24 Y91.73 E304.865
G1 X97.5 Y88.47 E304.996
G1 X100.76 Y85.21 E305.126
G1 X104.02 Y81.95 E305.257
G1 X107.28 Y78.69 E305.387
G1 X106.57 F7800
G1 X103.38 Y81.88 E305.515 F3600
G1 X100.19 Y85.07 E305.642
G1 X97.01 Y88.25 E305.77
G1 X93.82 Y91.44 E305.897
G1 X90.63 Y94.63 E306.025
G1 X87.44 Y97.82 E306.153
G1 X84.25 Y101.01 E306.28
G1 X81.07 Y104.19 E306.408
G1 X77.88 Y107.38 E306.535
G1 X74.69 Y110.57 E306.663
G1 Y109.87 F7800
G1 X78.15 Y106.41 E306.802 F3600
G1 X81.62 Y102.94 E306.94
G1 X85.08 Y99.48 E307.079
G1 X88.55 Y96.01 E307.217
G1 X92.01 Y92.55 E307.356
G1 X95.48 Y89.08 E307.494
G1 X98.94 Y85.62 E307.633
G1 X102.41 Y82.15 E307.771
G1 X105.87 Y78.69 E307.91
G1 X105.16 F7800
G1 X101.77 Y82.08 E308.046 F3600
G1 X98.39 Y85.46 E308.181
G1 X95 Y88.85 E308.317
G1 X91.62 Y92.23 E308.452
G1 X88.23 Y95.62 E308.588
G1 X84.85 Y99 E308.723
G1 X81.46 Y102.39 E308.859
G1 X78.08 Y105.77 E308.994
G1 X74.69 Y109.16 E309.13
G1 Y108.45 F7800
G1 X78 Y105.14 E309.262 F3600
G1 X81.3 Y101.84 E309.394
G1 X84.61 Y98.53 E309.527
G1 X87.92 Y95.22 E309.659
G1 X91.22 Y91.92 E309.791
G1 X94.53 Y88.61 E309.923
G1 X97.84 Y85.3 E310.056
G1 X101.14 Y82 E310.188
G1 X104.45 Y78.69 E310.32
G1 X103.74 F7800
G1 X100.51 Y81.92 E310.449 F3600
G1 X97.28 Y85.15 E310.578
G1 X94.06 Y88.37 E310.708
G1 X90.83 Y91.6 E310.837
G1 X87.6 Y94.83 E310.966
G1 X84.37 Y98.06 E311.095
G1 X81.15 Y101.28 E311.225
G1 X77.92 Y104.51 E311.354
G1 X74.69 Y107.74 E311.483
G1 Y107.04 F7800
G1 X77.84 Y103.89 E311.609 F3600
G1 X80.99 Y100.74 E311.735
G1 X84.14 Y97.59 E311.861
G1 X87.29 Y94.44 E311.987
G1 X90.44 Y91.29 E312.113
G1 X93.59 Y88.14 E312.239
G1 X96.74 Y84.99 E312.365
G1 X99.89 Y81.84 E312.491
G1 X103.04 Y78.69 E312.617
G1 X102.33 F7800
G1 X98.88 Y82.15 E312.755 F3600
G1 X95.42 Y85.6 E312.894
G1 X91.97 Y89.06 E313.032
G1 X88.51 Y92.51 E313.17
G1 X85.06 Y95.97 E313.308
G1 X81.6 Y99.42 E313.447
G1 X78.15 Y102.88 E313.585
G1 X74.69 Y106.33 E313.723
G1 Y105.62 F7800
G1 X78.06 Y102.25 E313.858 F3600
G1 X81.42 Y98.89 E313.993
G1 X84.79 Y95.52 E314.127
G1 X88.16 Y92.16 E314.262
G1 X91.52 Y88.79 E314.397
G1 X94.89 Y85.42 E314.532
G1 X98.25 Y82.06 E314.666
G1 X101.62 Y78.69 E314.801
G1 X100.92 F7800
G1 X97.64 Y81.97 E314.932 F3600
G1 X94.36 Y85.25 E315.063
G1 X91.08 Y88.53 E315.194
G1 X87.81 Y91.81 E315.326
G1 X84.53 Y95.08 E315.457
G1 X81.25 Y98.36 E315.588
G1 X77.97 Y101.64 E315.719
G1 X74.69 Y104.92 E315.85
G1 Y104.21 F7800
G1 X77.88 Y101.02 E315.978 F3600
G1 X81.07 Y97.83 E316.106
G1 X84.26 Y94.64 E316.233
G1 X87.45 Y91.45 E316.361
G1 X90.64 Y88.26 E316.489
G1 X93.83 Y85.07 E316.617
G1 X97.02 Y81.88 E316.744
G1 X100.21 Y78.69 E316.872
G1 X99.5 F7800
G1 X96.4 Y81.79 E316.996 F3600
G1 X93.3 Y84.89 E317.12
G1 X90.2 Y87.99 E317.244
G1 X87.1 Y91.1 E317.368
G1 X83.99 Y94.2 E317.492
G1 X80.89 Y97.3 E317.616
G1 X77.79 Y100.4 E317.74
G1 X74.69 Y103.5 E317.864
G1 Y102.79 F7800
G1 X78.13 Y99.35 E318.002 F3600
G1 X81.58 Y95.9 E318.14
G1 X85.02 Y92.46 E318.278
G1 X88.46 Y89.02 E318.415
G1 X91.9 Y85.58 E318.553
G1 X95.35 Y82.13 E318.691
G1 X98.79 Y78.69 E318.829
G1 X98.09 F7800
G1 X94.75 Y82.03 E318.963 F3600
G1 X91.4 Y85.38 E319.096
G1 X88.06 Y88.72 E319.23
G1 X84.72 Y92.06 E319.364
G1 X81.38 Y95.4 E319.498
G1 X78.03 Y98.75 E319.631
G1 X74.69 Y102.09 E319.765
G1 Y101.38 F7800
G1 X77.93 Y98.14 E319.895 F3600
G1 X81.17 Y94.9 E320.024
G1 X84.41 Y91.66 E320.154
G1 X87.66 Y88.41 E320.284
G1 X90.9 Y85.17 E320.414
G1 X94.14 Y81.93 E320.543
G1 X97.38 Y78.69 E320.673
G1 X96.67 F7800
G1 X93.53 Y81.83 E320.799 F3600
G1 X90.39 Y84.97 E320.924
G1 X87.25 Y88.11 E321.05
G1 X84.11 Y91.25 E321.176
G1 X80.97 Y94.39 E321.302
G1 X77.83 Y97.53 E321.427
G1 X74.69 Y100.67 E321.553
G1 X74.69 Y99.97 F7800
G1 X77.73 Y96.93 E321.675 F3600
G1 X80.77 Y93.89 E321.796
G1 X83.81 Y90.85 E321.918
G1 X86.85 Y87.81 E322.039
G1 X89.89 Y84.77 E322.161
G1 X92.93 Y81.73 E322.282
G1 X95.97 Y78.69 E322.404
G1 X95.26 F7800
G1 X91.83 Y82.12 E322.541 F3600
G1 X88.4 Y85.55 E322.678
G1 X84.98 Y88.98 E322.816
G1 X81.55 Y92.4 E322.953
G1 X78.12 Y95.83 E323.09
G1 X74.69 Y99.26 E323.227
G1 Y98.55 F7800
G1 X78 Y95.24 E323.36 F3600
G1 X81.31 Y91.93 E323.492
G1 X84.62 Y88.62 E323.625
G1 X87.93 Y85.31 E323.757
G1 X91.24 Y82 E323.89
G1 X94.55 Y78.69 E324.022
G1 X93.84 F7800
G1 X90.65 Y81.88 E324.15 F3600
G1 X87.46 Y85.07 E324.277
G1 X84.27 Y88.27 E324.405
G1 X81.07 Y91.46 E324.533
G1 X77.88 Y94.65 E324.66
G1 X74.69 Y97.84 E324.788
G1 Y97.14 F7800
G1 X77.77 Y94.07 E324.911 F3600
G1 X80.84 Y90.99 E325.034
G1 X83.92 Y87.92 E325.157
G1 X86.99 Y84.84 E325.28
G1 X90.07 Y81.77 E325.403
G1 X93.14 Y78.69 E325.526
G1 X92.43 F7800
G1 X89.47 Y81.65 E325.644 F3600
G1 X86.52 Y84.6 E325.763
G1 X83.56 Y87.56 E325.881
G1 X80.6 Y90.52 E325.999
G1 X77.65 Y93.47 E326.118
G1 X74.69 Y96.43 E326.236
G1 Y95.72 F7800
G1 X78.1 Y92.31 E326.372 F3600
G1 X81.5 Y88.91 E326.509
G1 X84.91 Y85.5 E326.645
G1 X88.31 Y82.1 E326.782
G1 X91.72 Y78.69 E326.918
G1 X91.02 F7800
G1 X87.75 Y81.96 E327.049 F3600
G1 X84.49 Y85.22 E327.179
G1 X81.22 Y88.49 E327.31
G1 X77.96 Y91.75 E327.44
G1 X74.69 Y95.02 E327.571
G1 Y94.31 F7800
G1 X77.81 Y91.19 E327.696 F3600
G1 X80.94 Y88.06 E327.821
G1 X84.06 Y84.94 E327.946
G1 X87.19 Y81.81 E328.071
G1 X90.31 Y78.69 E328.196
G1 X89.6 F7800
G1 X86.62 Y81.67 E328.315 F3600
G1 X83.64 Y84.65 E328.435
G1 X80.65 Y87.64 E328.554
G1 X77.67 Y90.62 E328.674
G1 X74.69 Y93.6 E328.793
G1 Y92.89 F7800
G1 X77.53 Y90.05 E328.907 F3600
G1 X80.37 Y87.21 E329.02
G1 X83.21 Y84.37 E329.134
G1 X86.05 Y81.53 E329.247
G1 X88.89 Y78.69 E329.361
G1 X88.19 F7800
G1 X84.82 Y82.07 E329.496 F3600
G1 X81.44 Y85.44 E329.631
G1 X78.07 Y88.82 E329.766
G1 X74.69 Y92.19 E329.901
G1 Y91.48 F7800
G1 X77.89 Y88.28 E330.029 F3600
G1 X81.09 Y85.09 E330.157
G1 X84.28 Y81.89 E330.285
G1 X87.48 Y78.69 E330.413
G1 X86.77 F7800
G1 X83.75 Y81.71 E330.534 F3600
G1 X80.73 Y84.73 E330.655
G1 X77.71 Y87.75 E330.775
G1 X74.69 Y90.77 E330.896
G1 Y90.07 F7800
G1 X77.54 Y87.23 E331.01 F3600
G1 X80.38 Y84.38 E331.124
G1 X83.23 Y81.54 E331.238
G1 X86.07 Y78.69 E331.352
G1 X85.36 F7800
G1 X82.69 Y81.36 E331.459 F3600
G1 X80.03 Y84.03 E331.565
G1 X77.36 Y86.69 E331.672
G1 X74.69 Y89.36 E331.778
G1 Y88.65 F7800
G1 X78.01 Y85.33 E331.911 F3600
G1 X81.33 Y82.01 E332.044
G1 X84.65 Y78.69 E332.177
G1 X83.94 F7800
G1 X80.86 Y81.77 E332.3 F3600
G1 X77.77 Y84.86 E332.424
G1 X74.69 Y87.94 E332.547
G1 Y87.24 F7800
G1 X77.54 Y84.39 E332.661 F3600
G1 X80.39 Y81.54 E332.775
G1 X83.24 Y78.69 E332.889
G1 X82.53 F7800
G1 X79.92 Y81.3 E332.994 F3600
G1 X77.3 Y83.92 E333.098
G1 X74.69 Y86.53 E333.203
G1 Y85.82 F7800
G1 X77.07 Y83.44 E333.298 F3600
G1 X79.44 Y81.07 E333.394
G1 X81.82 Y78.69 E333.489
G1 X81.12 F7800
G1 X77.91 Y81.91 E333.618 F3600
G1 X74.69 Y85.12 E333.746
G1 Y84.41 F7800
G1 X77.55 Y81.55 E333.861 F3600
G1 X80.41 Y78.69 E333.975
G1 X79.7 F7800
G1 X77.2 Y81.2 E334.075 F3600
G1 X74.69 Y83.7 E334.175
G1 Y82.99 F7800
G1 X76.85 Y80.84 E334.261 F3600
G1 X79 Y78.69 E334.347
G1 X78.29 F7800
G1 X74.69 Y82.29 E334.491 F3600
G1 Y81.58 F7800
G1 X77.58 Y78.69 E334.607 F3600
G1 X76.87 F7800
G1 X74.69 Y80.87 E334.694 F3600
G1 Y80.17 F7800
G1 X76.17 Y78.69 E334.753 F3600
G1 X75.46 F7800
G1 X74.69 Y79.46 E334.784 F3600
G1 Y78.75 F7800
G1 X74.75 Y78.69 E334.787 F3600
G1 E333.787 F1800
G1 X76.13 Y85.79 F7800
G1 X77.51 Y92.9
G1 X78.9 Y100
G1 X80.28 Y107.1
G1 X81.66 Y114.21
G1 X83.04 Y121.31
G1 E334.787 F1800
G1 X86.56 Y117.79 E334.928 F3600
G1 X90.09 Y114.27 E335.069
G1 X93.61 Y110.74 E335.21
G1 X97.13 Y107.22 E335.351
G1 X100.65 Y103.7 E335.492
G1 X104.18 Y100.18 E335.633
G1 X107.7 Y96.65 E335.773
G1 X111.22 Y93.13 E335.914
G1 X114.74 Y89.61 E336.055
G1 X118.27 Y86.09 E336.196
G1 X121.79 Y82.56 E336.337
G1 X125.31 Y79.04 E336.478
G1 Y79.75 F7800
G1 X121.85 Y83.21 E336.617 F3600
G1 X118.38 Y86.68 E336.755
G1 X114.92 Y90.14 E336.894
G1 X111.46 Y93.6 E337.032
G1 X107.99 Y97.07 E337.171
G1 X104.53 Y100.53 E337.31
G1 X101.07 Y103.99 E337.448
G1 X97.6 Y107.46 E337.587
G1 X94.14 Y110.92 E337.725
G1 X90.68 Y114.38 E337.864
G1 X87.21 Y117.85 E338.002
G1 X83.75 Y121.31 E338.141
G1 X84.46 F7800
G1 X87.86 Y117.91 E338.277 F3600
G1 X91.27 Y114.5 E338.413
G1 X94.67 Y111.1 E338.55
G1 X98.08 Y107.69 E338.686
G1 X101.48 Y104.29 E338.822
G1 X104.89 Y100.89 E338.958
G1 X108.29 Y97.48 E339.094
G1 X111.69 Y94.08 E339.23
G1 X115.1 Y90.67 E339.367
G1 X118.5 Y87.27 E339.503
G1 X121.91 Y83.86 E339.639
G1 X125.31 Y80.46 E339.775
G1 Y81.17 F7800
G1 X121.97 Y84.52 E339.909 F3600
G1 X118.62 Y87.86 E340.043
G1 X115.28 Y91.21 E340.177
G1 X111.93 Y94.55 E340.311
G1 X108.59 Y97.9 E340.445
G1 X105.24 Y101.24 E340.579
G1 X101.9 Y104.59 E340.712
G1 X98.55 Y107.93 E340.846
G1 X95.21 Y111.28 E340.98
G1 X91.86 Y114.62 E341.114
G1 X88.52 Y117.97 E341.248
G1 X85.17 Y121.31 E341.382
G1 X85.87 F7800
G1 X89.16 Y118.02 E341.514 F3600
G1 X92.44 Y114.74 E341.645
G1 X95.73 Y111.45 E341.777
G1 X99.02 Y108.16 E341.908
G1 X102.3 Y104.88 E342.04
G1 X105.59 Y101.59 E342.171
G1 X108.88 Y98.3 E342.303
G1 X112.16 Y95.02 E342.434
G1 X115.45 Y91.73 E342.566
G1 X118.74 Y88.44 E342.697
G1 X122.02 Y85.16 E342.829
G1 X125.31 Y81.87 E342.96
G1 Y82.58 F7800
G1 X121.79 Y86.1 E343.101 F3600
G1 X118.27 Y89.62 E343.242
G1 X114.75 Y93.14 E343.382
G1 X111.23 Y96.66 E343.523
G1 X107.71 Y100.18 E343.664
G1 X104.18 Y103.71 E343.805
G1 X100.66 Y107.23 E343.946
G1 X97.14 Y110.75 E344.087
G1 X93.62 Y114.27 E344.227
G1 X90.1 Y117.79 E344.368
G1 X86.58 Y121.31 E344.509
G1 X87.29 F7800
G1 X90.75 Y117.85 E344.647 F3600
G1 X94.2 Y114.4 E344.786
G1 X97.66 Y110.94 E344.924
G1 X101.12 Y107.48 E345.062
G1 X104.57 Y104.03 E345.201
G1 X108.03 Y100.57 E345.339
G1 X111.48 Y97.12 E345.478
G1 X114.94 Y93.66 E345.616
G1 X118.4 Y90.2 E345.754
G1 X121.85 Y86.75 E345.893
G1 X125.31 Y83.29 E346.031
G1 Y83.99 F7800
G1 X121.92 Y87.38 E346.167 F3600
G1 X118.52 Y90.78 E346.302
G1 X115.13 Y94.17 E346.438
G1 X111.74 Y97.56 E346.574
G1 X108.35 Y100.95 E346.71
G1 X104.95 Y104.35 E346.845
G1 X101.56 Y107.74 E346.981
G1 X98.17 Y111.13 E347.117
G1 X94.78 Y114.52 E347.253
G1 X91.38 Y117.92 E347.388
G1 X87.99 Y121.31 E347.524
G1 X88.7 F7800
G1 X92.03 Y117.98 E347.657 F3600
G1 X95.36 Y114.65 E347.79
G1 X98.68 Y111.33 E347.924
G1 X102.01 Y108 E348.057
G1 X105.34 Y104.67 E348.19
G1 X108.67 Y101.34 E348.323
G1 X112 Y98.01 E348.456
G1 X115.33 Y94.68 E348.589
G1 X118.65 Y91.36 E348.723
G1 X121.98 Y88.03 E348.856
G1 X125.31 Y84.7 E348.989
G1 Y85.41 F7800
G1 X122.05 Y88.67 E349.12 F3600
G1 X118.78 Y91.94 E349.25
G1 X115.52 Y95.2 E349.381
G1 X112.26 Y98.46 E349.511
G1 X108.99 Y101.73 E349.642
G1 X105.73 Y104.99 E349.772
G1 X102.46 Y108.26 E349.903
G1 X99.2 Y111.52 E350.033
G1 X95.94 Y114.78 E350.164
G1 X92.67 Y118.05 E350.294
G1 X89.41 Y121.31 E350.425
G1 X90.12 F7800
G1 X93.64 Y117.79 E350.566 F3600
G1 X97.16 Y114.27 E350.707
G1 X100.68 Y110.75 E350.848
G1 X104.2 Y107.23 E350.989
G1 X107.72 Y103.72 E351.13
G1 X111.23 Y100.2 E351.27
G1 X114.75 Y96.68 E351.411
G1 X118.27 Y93.16 E351.552
G1 X121.79 Y89.64 E351.693
G1 X125.31 Y86.12 E351.834
G1 Y86.82 F7800
G1 X121.86 Y90.27 E351.972 F3600
G1 X118.41 Y93.72 E352.11
G1 X114.96 Y97.17 E352.248
G1 X111.51 Y100.62 E352.386
G1 X108.07 Y104.07 E352.524
G1 X104.62 Y107.51 E352.662
G1 X101.17 Y110.96 E352.8
G1 X97.72 Y114.41 E352.938
G1 X94.27 Y117.86 E353.076
G1 X90.82 Y121.31 E353.214
G1 X91.53 F7800
G1 X94.91 Y117.93 E353.349 F3600
G1 X98.29 Y114.55 E353.484
G1 X101.66 Y111.18 E353.619
G1 X105.04 Y107.8 E353.754
G1 X108.42 Y104.42 E353.89
G1 X111.8 Y101.04 E354.025
G1 X115.18 Y97.66 E354.16
G1 X118.55 Y94.29 E354.295
G1 X121.93 Y90.91 E354.43
G1 X125.31 Y87.53 E354.565
G1 Y88.24 F7800
G1 X122 Y91.55 E354.697 F3600
G1 X118.7 Y94.85 E354.83
G1 X115.39 Y98.16 E354.962
G1 X112.08 Y101.47 E355.095
G1 X108.78 Y104.78 E355.227
G1 X105.47 Y108.08 E355.359
G1 X102.16 Y111.39 E355.492
G1 X98.85 Y114.7 E355.624
G1 X95.55 Y118 E355.757
G1 X92.24 Y121.31 E355.889
G1 X92.94 F7800
G1 X96.18 Y118.07 E356.019 F3600
G1 X99.41 Y114.84 E356.148
G1 X102.65 Y111.6 E356.278
G1 X105.89 Y108.36 E356.407
G1 X109.13 Y105.13 E356.537
G1 X112.36 Y101.89 E356.666
G1 X115.6 Y98.65 E356.796
G1 X118.84 Y95.41 E356.925
G1 X122.07 Y92.18 E357.055
G1 X125.31 Y88.94 E357.184
G1 Y89.65 F7800
G1 X121.79 Y93.17 E357.325 F3600
G1 X118.27 Y96.69 E357.465
G1 X114.76 Y100.2 E357.606
G1 X111.24 Y103.72 E357.747
G1 X107.72 Y107.24 E357.887
G1 X104.2 Y110.76 E358.028
G1 X100.69 Y114.27 E358.169
G1 X97.17 Y117.79 E358.309
G1 X93.65 Y121.31 E358.45
G1 X94.36 F7800
G1 X97.8 Y117.87 E358.588 F3600
G1 X101.24 Y114.43 E358.725
G1 X104.68 Y110.99 E358.863
G1 X108.12 Y107.55 E359.001
G1 X111.55 Y104.12 E359.138
G1 X114.99 Y100.68 E359.276
G1 X118.43 Y97.24 E359.414
G1 X121.87 Y93.8 E359.551
G1 X125.31 Y90.36 E359.689
G1 Y91.07 F7800
G1 X121.95 Y94.43 E359.823 F3600
G1 X118.59 Y97.79 E359.958
G1 X115.23 Y101.15 E360.092
G1 X111.87 Y104.51 E360.227
G1 X108.51 Y107.87 E360.361
G1 X105.15 Y111.23 E360.496
G1 X101.79 Y114.59 E360.63
G1 X98.43 Y117.95 E360.765
G1 X95.07 Y121.31 E360.899
G1 X95.77 F7800
G1 X99.05 Y118.03 E361.03 F3600
G1 X102.33 Y114.75 E361.162
G1 X105.62 Y111.46 E361.293
G1 X108.9 Y108.18 E361.424
G1 X112.18 Y104.9 E361.556
G1 X115.46 Y101.62 E361.687
G1 X118.75 Y98.33 E361.818
G1 X122.03 Y95.05 E361.95
G1 X125.31 Y91.77 E362.081
G1 Y92.48 F7800
G1 X122.11 Y95.68 E362.209 F3600
G1 X118.9 Y98.89 E362.337
G1 X115.7 Y102.09 E362.466
G1 X112.5 Y105.29 E362.594
G1 X109.29 Y108.5 E362.722
G1 X106.09 Y111.7 E362.85
G1 X102.89 Y114.9 E362.979
G1 X99.68 Y118.11 E363.107
G1 X96.48 Y121.31 E363.235
G1 X97.19 F7800
G1 X100.71 Y117.8 E363.376 F3600
G1 X104.22 Y114.28 E363.516
G1 X107.74 Y110.77 E363.657
G1 X111.25 Y107.25 E363.798
G1 X114.77 Y103.74 E363.938
G1 X118.28 Y100.22 E364.079
G1 X121.8 Y96.71 E364.219
G1 X125.31 Y93.19 E364.36
G1 Y93.89 F7800
G1 X121.88 Y97.32 E364.497 F3600
G1 X118.46 Y100.75 E364.634
G1 X115.03 Y104.17 E364.771
G1 X111.6 Y107.6 E364.909
G1 X108.17 Y111.03 E365.046
G1 X104.75 Y114.46 E365.183
G1 X101.32 Y117.88 E365.32
G1 X97.89 Y121.31 E365.457
G1 X98.6 F7800
G1 X101.94 Y117.97 E365.591 F3600
G1 X105.28 Y114.63 E365.724
G1 X108.62 Y111.29 E365.858
G1 X111.96 Y107.96 E365.992
G1 X115.29 Y104.62 E366.125
G1 X118.63 Y101.28 E366.259
G1 X121.97 Y97.94 E366.392
G1 X125.31 Y94.6 E366.526
G1 Y95.31 F7800
G1 X122.06 Y98.56 E366.656 F3600
G1 X118.81 Y101.81 E366.786
G1 X115.56 Y105.06 E366.916
G1 X112.31 Y108.31 E367.046
G1 X109.06 Y111.56 E367.176
G1 X105.81 Y114.81 E367.306
G1 X102.56 Y118.06 E367.436
G1 X99.31 Y121.31 E367.566
G1 X100.01 F7800
G1 X103.17 Y118.15 E367.693 F3600
G1 X106.34 Y114.99 E367.819
G1 X109.5 Y111.83 E367.946
G1 X112.66 Y108.67 E368.072
G1 X115.82 Y105.5 E368.199
G1 X118.99 Y102.34 E368.325
G1 X122.15 Y99.18 E368.452
G1 X125.31 Y96.02 E368.578
G1 Y96.72 F7800
G1 X121.8 Y100.23 E368.719 F3600
G1 X118.28 Y103.75 E368.859
G1 X114.77 Y107.26 E369
G1 X111.26 Y110.77 E369.14
G1 X107.75 Y114.28 E369.281
G1 X104.23 Y117.8 E369.421
G1 X100.72 Y121.31 E369.562
G1 X101.43 F7800
G1 X104.84 Y117.9 E369.699 F3600
G1 X108.25 Y114.49 E369.835
G1 X111.66 Y111.08 E369.972
G1 X115.08 Y107.66 E370.108
G1 X118.49 Y104.25 E370.245
G1 X121.9 Y100.84 E370.381
G1 X125.31 Y97.43 E370.518
G1 Y98.14 F7800
G1 X122 Y101.45 E370.65 F3600
G1 X118.69 Y104.76 E370.783
G1 X115.38 Y108.07 E370.915
G1 X112.07 Y111.38 E371.048
G1 X108.76 Y114.69 E371.18
G1 X105.45 Y118 E371.313
G1 X102.14 Y121.31 E371.445
G1 X102.84 F7800
G1 X106.05 Y118.1 E371.573 F3600
G1 X109.26 Y114.89 E371.702
G1 X112.47 Y111.68 E371.83
G1 X115.68 Y108.47 E371.959
G1 X118.89 Y105.26 E372.087
G1 X122.1 Y102.05 E372.216
G1 X125.31 Y98.84 E372.344
G1 Y99.55 F7800
G1 X122.2 Y102.66 E372.468 F3600
G1 X119.09 Y105.77 E372.593
G1 X115.98 Y108.88 E372.717
G1 X112.88 Y111.98 E372.841
G1 X109.77 Y115.09 E372.965
G1 X106.66 Y118.2 E373.09
G1 X103.55 Y121.31 E373.214
G1 X104.26 F7800
G1 X107.77 Y117.8 E373.355 F3600
G1 X111.28 Y114.29 E373.495
G1 X114.79 Y110.79 E373.636
G1 X118.29 Y107.28 E373.776
G1 X121.8 Y103.77 E373.917
G1 X125.31 Y100.26 E374.057
G1 Y100.96 F7800
G1 X121.92 Y104.35 E374.193 F3600
G1 X118.53 Y107.74 E374.328
G1 X115.14 Y111.14 E374.464
G1 X111.74 Y114.53 E374.6
G1 X108.35 Y117.92 E374.735
G1 X104.96 Y121.31 E374.871
G1 X105.67 F7800
G1 X108.94 Y118.04 E375.002 F3600
G1 X112.22 Y114.76 E375.133
G1 X115.49 Y111.49 E375.264
G1 X118.76 Y108.22 E375.395
G1 X122.04 Y104.94 E375.526
G1 X125.31 Y101.67 E375.657
G1 Y102.38 F7800
G1 X122.16 Y105.54 E375.783 F3600
G1 X119 Y108.69 E375.909
G1 X115.85 Y111.85 E376.036
G1 X112.69 Y115 E376.162
G1 X109.54 Y118.16 E376.288
G1 X106.38 Y121.31 E376.414
G1 X107.09 F7800
G1 X110.13 Y118.27 E376.536 F3600
G1 X113.16 Y115.24 E376.657
G1 X116.2 Y112.2 E376.779
G1 X119.24 Y109.16 E376.9
G1 X122.27 Y106.13 E377.022
G1 X125.31 Y103.09 E377.143
G1 Y103.79 F7800
G1 X121.81 Y107.29 E377.283 F3600
G1 X118.3 Y110.8 E377.423
G1 X114.8 Y114.3 E377.564
G1 X111.29 Y117.81 E377.704
G1 X107.79 Y121.31 E377.844
G1 X108.5 F7800
G1 X111.86 Y117.95 E377.979 F3600
G1 X115.22 Y114.59 E378.113
G1 X118.59 Y111.22 E378.248
G1 X121.95 Y107.86 E378.382
G1 X125.31 Y104.5 E378.517
G1 Y105.21 F7800
G1 X122.09 Y108.43 E378.646 F3600
G1 X118.87 Y111.65 E378.775
G1 X115.65 Y114.87 E378.903
G1 X112.43 Y118.09 E379.032
G1 X109.21 Y121.31 E379.161
G1 X109.91 F7800
G1 X112.99 Y118.23 E379.284 F3600
G1 X116.07 Y115.15 E379.407
G1 X119.15 Y112.07 E379.531
G1 X122.23 Y108.99 E379.654
G1 X125.31 Y105.91 E379.777
G1 Y106.62 F7800
G1 X122.37 Y109.56 E379.895 F3600
G1 X119.43 Y112.5 E380.012
G1 X116.5 Y115.43 E380.13
G1 X113.56 Y118.37 E380.247
G1 X110.62 Y121.31 E380.365
G1 X111.33 F7800
G1 X114.83 Y117.82 E380.505 F3600
G1 X118.32 Y114.32 E380.645
G1 X121.82 Y110.83 E380.784
G1 X125.31 Y107.33 E380.924
G1 Y108.04 F7800
G1 X121.99 Y111.36 E381.057 F3600
G1 X118.68 Y114.68 E381.19
G1 X115.36 Y117.99 E381.322
G1 X112.04 Y121.31 E381.455
G1 X112.74 F7800
G1 X115.88 Y118.17 E381.581 F3600
G1 X119.03 Y115.03 E381.707
G1 X122.17 Y111.88 E381.832
G1 X125.31 Y108.74 E381.958
G1 Y109.45 F7800
G1 X122.35 Y112.42 E382.077 F3600
G1 X119.38 Y115.38 E382.196
G1 X116.42 Y118.35 E382.314
G1 X113.45 Y121.31 E382.433
G1 X114.16 F7800
G1 X116.95 Y118.52 E382.545 F3600
G1 X119.74 Y115.74 E382.656
G1 X122.52 Y112.95 E382.768
G1 X125.31 Y110.16 E382.879
G1 Y110.86 F7800
G1 X121.83 Y114.34 E383.018 F3600
G1 X118.34 Y117.83 E383.158
G1 X114.86 Y121.31 E383.297
G1 X115.57 F7800
G1 X118.82 Y118.06 E383.427 F3600
G1 X122.06 Y114.82 E383.557
G1 X125.31 Y111.57 E383.687
G1 Y112.28 F7800
G1 X122.3 Y115.29 E383.807 F3600
G1 X119.29 Y118.3 E383.928
G1 X116.28 Y121.31 E384.048
G1 X116.99 F7800
G1 X119.76 Y118.54 E384.159 F3600
G1 X122.54 Y115.76 E384.27
G1 X125.31 Y112.99 E384.381
G1 Y113.69 F7800
G1 X122.77 Y116.23 E384.483 F3600
G1 X120.23 Y118.77 E384.584
G1 X117.69 Y121.31 E384.686
G1 X118.4 F7800
G1 X121.86 Y117.86 E384.824 F3600
G1 X125.31 Y114.4 E384.962
G1 Y115.11 F7800
G1 X122.21 Y118.21 E385.087 F3600
G1 X119.11 Y121.31 E385.211
G1 X119.81 F7800
G1 X122.56 Y118.56 E385.321 F3600
G1 X125.31 Y115.81 E385.431
G1 Y116.52 F7800
G1 X122.92 Y118.92 E385.527 F3600
G1 X120.52 Y121.31 E385.622
G1 X121.23 F7800
G1 X125.31 Y117.23 E385.786 F3600
G1 Y117.94 F7800
G1 X121.93 Y121.31 E385.921 F3600
G1 X122.64 F7800
G1 X125.31 Y118.64 E386.027 F3600
G1 Y119.35 F7800
G1 X123.35 Y121.31 E386.106 F3600
G1 X124.06 F7800
G1 X125.31 Y120.06 E386.156 F3600
G1 Y120.76 F7800
G1 X124.76 Y121.31 E386.178 F3600
; Layer Change GCode
; LAYER:3
; LAYER_HEIGHT:0.4
; TYPE:FILL
M400
M106 S255
; TYPE:WALL-OUTER
G1 X120.08 Y121.44 Z1.11 E386.311 F1134
G1 X115.39 Y121.57 Z1.119 E386.443
G1 X110.71 Y121.7 Z1.129 E386.576
G1 X106.03 Y121.83 Z1.138 E386.708
G1 X101.35 Y121.96 Z1.148 E386.841
G1 X96.66 Y122.1 Z1.157 E386.973
G1 X91.98 Y122.23 Z1.167 E387.106
G1 X87.3 Y122.36 Z1.176 E387.238
G1 X82.62 Y122.49 Z1.186 E387.371
G1 X77.93 Y122.62 Z1.195 E387.503
G1 X73.25 Y122.75 Z1.205 E387.636
G1 Y118.2 Z1.214 E387.765
G1 Y113.65 Z1.224 E387.893
G1 Y109.1 Z1.233 E388.022
G1 Y104.55 Z1.242 E388.151
G1 Y100 Z1.252 E388.28
G1 Y95.45 Z1.261 E388.408
G1 Y90.9 Z1.27 E388.537
G1 Y86.35 Z1.279 E388.666
G1 Y81.8 Z1.289 E388.794
G1 Y77.25 Z1.298 E388.923
G1 X78.11 Z1.308 E389.061
G1 X82.98 Z1.318 E389.198
G1 X87.84 Z1.328 E389.336
G1 X92.7 Z1.338 E389.474
G1 X97.57 Z1.348 E389.611
G1 X102.43 Z1.357 E389.749
G1 X107.3 Z1.367 E389.886
G1 X112.16 Z1.377 E390.024
G1 X117.02 Z1.387 E390.162
G1 X121.89 Z1.397 E390.299
G1 X126.75 Z1.407 E390.437
G1 Y81.8 Z1.416 E390.566
G1 Y86.35 Z1.426 E390.694
G1 Y90.9 Z1.435 E390.823
G1 Y95.45 Z1.444 E390.952
G1 Y100 Z1.454 E391.081
G1 Y104.55 Z1.463 E391.209
G1 Y109.1 Z1.472 E391.338
G1 Y113.65 Z1.481 E391.467
G1 Y118.2 Z1.491 E391.595
G1 Y122.75 Z1.5 E391.724
; Layer Change GCode
; LAYER:4
; LAYER_HEIGHT:0.4
; TYPE:FILL
; TYPE:WALL-OUTER
G1 X121.89 Z1.51 E391.862 F1008
G1 X117.02 Z1.52 E391.999
G1 X112.16 Z1.529 E392.137
G1 X107.3 Z1.539 E392.275
G1 X102.43 Z1.549 E392.412
G1 X97.57 Z1.559 E392.55
G1 X92.7 Z1.569 E392.687
G1 X87.84 Z1.579 E392.825
G1 X82.98 Z1.588 E392.963
G1 X78.11 Z1.598 E393.1
G1 X73.25 Z1.608 E393.238
G1 Y118.2 Z1.617 E393.367
G1 Y113.65 Z1.626 E393.495
G1 Y109.1 Z1.636 E393.624
G1 Y104.55 Z1.645 E393.753
G1 Y100 Z1.654 E393.882
G1 Y95.45 Z1.663 E394.01
G1 Y90.9 Z1.672 E394.139
G1 Y86.35 Z1.682 E394.268
G1 Y81.8 Z1.691 E394.396
G1 Y77.25 Z1.7 E394.525
G1 X78.11 Z1.71 E394.663
G1 X82.98 Z1.72 E394.8
G1 X87.84 Z1.729 E394.938
G1 X92.7 Z1.739 E395.076
G1 X97.57 Z1.749 E395.213
G1 X102.43 Z1.759 E395.351
G1 X107.3 Z1.769 E395.488
G1 X112.16 Z1.779 E395.626
G1 X117.02 Z1.788 E395.764
G1 X121.89 Z1.798 E395.901
G1 X126.75 Z1.808 E396.039
G1 Y81.8 Z1.817 E396.168
G1 Y86.35 Z1.826 E396.297
G1 Y90.9 Z1.836 E396.425
G1 Y95.45 Z1.845 E396.554
G1 Y100 Z1.854 E396.683
G1 Y104.55 Z1.863 E396.812
G1 Y109.1 Z1.872 E396.941
G1 Y113.65 Z1.882 E397.069
G1 Y118.2 Z1.891 E397.198
G1 Y122.75 Z1.9 E397.327
; Layer Change GCode
; LAYER:5
; LAYER_HEIGHT:0.4
; TYPE:FILL
; TYPE:WALL-OUTER
G1 X121.89 Z1.91 E397.465 F882
G1 X117.02 Z1.92 E397.602
G1 X112.16 Z1.929 E397.74
G1 X107.3 Z1.939 E397.877
G1 X102.43 Z1.949 E398.015
G1 X97.57 Z1.959 E398.152
G1 X92.7 Z1.969 E398.29
G1 X87.84 Z1.979 E398.427
G1 X82.98 Z1.988 E398.565
G1 X78.11 Z1.998 E398.702
G1 X73.25 Z2.008 E398.84
G1 Y118.2 Z2.017 E398.969
G1 Y113.65 Z2.026 E399.098
G1 Y109.1 Z2.036 E399.226
G1 Y104.55 Z2.045 E399.355
G1 Y100 Z2.054 E399.484
G1 Y95.45 Z2.063 E399.613
G1 Y90.9 Z2.072 E399.742
G1 Y86.35 Z2.082 E399.87
G1 Y81.8 Z2.091 E399.999
G1 Y77.25 Z2.1 E400.128
G1 X78.11 Z2.11 E400.266
G1 X82.98 Z2.12 E400.403
G1 X87.84 Z2.129 E400.541
G1 X92.7 Z2.139 E400.678
G1 X97.57 Z2.149 E400.816
G1 X102.43 Z2.159 E400.953
G1 X107.3 Z2.169 E401.091
G1 X112.16 Z2.179 E401.228
G1 X117.02 Z2.188 E401.366
G1 X121.89 Z2.198 E401.503
G1 X126.75 Z2.208 E401.641
G1 Y81.8 Z2.217 E401.77
G1 Y86.35 Z2.226 E401.899
G1 Y90.9 Z2.236 E402.027
G1 Y95.45 Z2.245 E402.156
G1 Y100 Z2.254 E402.285
G1 Y104.55 Z2.263 E402.414
G1 Y109.1 Z2.272 E402.543
G1 Y113.65 Z2.282 E402.671
G1 Y118.2 Z2.291 E402.8
G1 Y122.75 Z2.3 E402.929
; Layer Change GCode
; LAYER:6
; LAYER_HEIGHT:0.4
; TYPE:FILL
; TYPE:WALL-OUTER
G1 X121.89 Z2.31 E403.067 F756
G1 X117.02 Z2.32 E403.204
G1 X112.16 Z2.329 E403.342
G1 X107.3 Z2.339 E403.48
G1 X102.43 Z2.349 E403.617
G1 X97.57 Z2.359 E403.755
G1 X92.7 Z2.369 E403.892
G1 X87.84 Z2.379 E404.03
G1 X82.98 Z2.388 E404.168
G1 X78.11 Z2.398 E404.305
G1 X73.25 Z2.408 E404.443
G1 Y118.2 Z2.417 E404.572
G1 Y113.65 Z2.426 E404.7
G1 Y109.1 Z2.436 E404.829
G1 Y104.55 Z2.445 E404.958
G1 Y100 Z2.454 E405.087
G1 Y95.45 Z2.463 E405.215
G1 Y90.9 Z2.472 E405.344
G1 Y86.35 Z2.482 E405.473
G1 Y81.8 Z2.491 E405.601
G1 Y77.25 Z2.5 E405.73
G1 X78.11 Z2.51 E405.868
G1 X82.98 Z2.52 E406.005
G1 X87.84 Z2.529 E406.143
G1 X92.7 Z2.539 E406.281
G1 X97.57 Z2.549 E406.418
G1 X102.43 Z2.559 E406.556
G1 X107.3 Z2.569 E406.693
G1 X112.16 Z2.579 E406.831
G1 X117.02 Z2.588 E406.969
G1 X121.89 Z2.598 E407.106
G1 X126.75 Z2.608 E407.244
G1 Y81.8 Z2.617 E407.373
G1 Y86.35 Z2.626 E407.501
G1 Y90.9 Z2.636 E407.63
G1 Y95.45 Z2.645 E407.759
G1 Y100 Z2.654 E407.888
G1 Y104.55 Z2.663 E408.016
G1 Y109.1 Z2.672 E408.145
G1 Y113.65 Z2.682 E408.274
G1 Y118.2 Z2.691 E408.402
G1 Y122.75 Z2.7 E408.531
; Layer Change GCode
; LAYER:7
; LAYER_HEIGHT:0.4
; TYPE:FILL
; TYPE:WALL-OUTER
G1 X121.89 Z2.71 E408.669 F630
G1 X117.02 Z2.72 E408.806
G1 X112.16 Z2.729 E408.944
G1 X107.3 Z2.739 E409.082
G1 X102.43 Z2.749 E409.219
G1 X97.57 Z2.759 E409.357
G1 X92.7 Z2.769 E409.494
G1 X87.84 Z2.779 E409.632
G1 X82.98 Z2.788 E409.77
G1 X78.11 Z2.798 E409.907
G1 X73.25 Z2.808 E410.045
G1 Y118.2 Z2.817 E410.174
G1 Y113.65 Z2.826 E410.302
G1 Y109.1 Z2.836 E410.431
G1 Y104.55 Z2.845 E410.56
G1 Y100 Z2.854 E410.689
G1 Y95.45 Z2.863 E410.817
G1 Y90.9 Z2.872 E410.946
G1 Y86.35 Z2.882 E411.075
G1 Y81.8 Z2.891 E411.203
G1 Y77.25 Z2.9 E411.332
G1 X78.11 Z2.91 E411.47
G1 X82.98 Z2.92 E411.607
G1 X87.84 Z2.929 E411.745
G1 X92.7 Z2.939 E411.883
G1 X97.57 Z2.949 E412.02
G1 X102.43 Z2.959 E412.158
G1 X107.3 Z2.969 E412.295
G1 X112.16 Z2.979 E412.433
G1 X117.02 Z2.988 E412.571
G1 X121.89 Z2.998 E412.708
G1 X126.75 Z3.008 E412.846
G1 Y81.8 Z3.017 E412.975
G1 Y86.35 Z3.026 E413.103
G1 Y90.9 Z3.036 E413.232
G1 Y95.45 Z3.045 E413.361
G1 Y100 Z3.054 E413.49
G1 Y104.55 Z3.063 E413.618
G1 Y109.1 Z3.072 E413.747
G1 Y113.65 Z3.082 E413.876
G1 Y118.2 Z3.091 E414.004
G1 Y122.75 Z3.1 E414.133
; Layer Change GCode
; LAYER:8
; LAYER_HEIGHT:0.4
; TYPE:FILL
; TYPE:WALL-OUTER
G1 X121.89 Z3.11 E414.271 F600
G1 X117.02 Z3.12 E414.408
G1 X112.16 Z3.129 E414.546
G1 X107.3 Z3.139 E414.684
G1 X102.43 Z3.149 E414.821
G1 X97.57 Z3.159 E414.959
G1 X92.7 Z3.169 E415.096
G1 X87.84 Z3.179 E415.234
G1 X82.98 Z3.188 E415.372
G1 X78.11 Z3.198 E415.509
G1 X73.25 Z3.208 E415.647
G1 Y118.2 Z3.217 E415.776
G1 Y113.65 Z3.226 E415.904
G1 Y109.1 Z3.236 E416.033
G1 Y104.55 Z3.245 E416.162
G1 Y100 Z3.254 E416.291
G1 Y95.45 Z3.263 E416.419
G1 Y90.9 Z3.272 E416.548
G1 Y86.35 Z3.282 E416.677
G1 Y81.8 Z3.291 E416.805
G1 Y77.25 Z3.3 E416.934
G1 X78.11 Z3.31 E417.072
G1 X82.98 Z3.32 E417.209
G1 X87.84 Z3.329 E417.347
G1 X92.7 Z3.339 E417.485
G1 X97.57 Z3.349 E417.622
G1 X102.43 Z3.359 E417.76
G1 X107.3 Z3.369 E417.897
G1 X112.16 Z3.379 E418.035
G1 X117.02 Z3.388 E418.173
G1 X121.89 Z3.398 E418.31
G1 X126.75 Z3.408 E418.448
G1 Y81.8 Z3.417 E418.577
G1 Y86.35 Z3.426 E418.706
G1 Y90.9 Z3.436 E418.834
G1 Y95.45 Z3.445 E418.963
G1 Y100 Z3.454 E419.092
G1 Y104.55 Z3.463 E419.221
G1 Y109.1 Z3.472 E419.35
G1 Y113.65 Z3.482 E419.478
G1 Y118.2 Z3.491 E419.607
G1 Y122.75 Z3.5 E419.736
; Layer Change GCode
; LAYER:9
; LAYER_HEIGHT:0.4
; TYPE:FILL
; TYPE:WALL-OUTER
G1 X121.89 Z3.51 E419.874
G1 X117.02 Z3.52 E420.011
G1 X112.16 Z3.529 E420.149
G1 X107.3 Z3.539 E420.286
G1 X102.43 Z3.549 E420.424
G1 X97.57 Z3.559 E420.561
G1 X92.7 Z3.569 E420.699
G1 X87.84 Z3.579 E420.836
G1 X82.98 Z3.588 E420.974
G1 X78.11 Z3.598 E421.111
G1 X73.25 Z3.608 E421.249
G1 Y118.2 Z3.617 E421.378
G1 Y113.65 Z3.626 E421.507
G1 Y109.1 Z3.636 E421.635
G1 Y104.55 Z3.645 E421.764
G1 Y100 Z3.654 E421.893
G1 Y95.45 Z3.663 E422.022
G1 Y90.9 Z3.672 E422.151
G1 Y86.35 Z3.682 E422.279
G1 Y81.8 Z3.691 E422.408
G1 Y77.25 Z3.7 E422.537
G1 X78.11 Z3.71 E422.675
G1 X82.98 Z3.72 E422.812
G1 X87.84 Z3.729 E422.95
G1 X92.7 Z3.739 E423.087
G1 X97.57 Z3.749 E423.225
G1 X102.43 Z3.759 E423.362
G1 X107.3 Z3.769 E423.5
G1 X112.16 Z3.779 E423.637
G1 X117.02 Z3.788 E423.775
G1 X121.89 Z3.798 E423.912
G1 X126.75 Z3.808 E424.05
G1 Y81.8 Z3.817 E424.179
G1 Y86.35 Z3.826 E424.308
G1 Y90.9 Z3.836 E424.436
G1 Y95.45 Z3.845 E424.565
G1 Y100 Z3.854 E424.694
G1 Y104.55 Z3.863 E424.823
G1 Y109.1 Z3.872 E424.952
G1 Y113.65 Z3.882 E425.08
G1 Y118.2 Z3.891 E425.209
G1 Y122.75 Z3.9 E425.338
; Layer Change GCode
; LAYER:10
; LAYER_HEIGHT:0.4
; TYPE:FILL
; TYPE:WALL-OUTER
G1 X121.89 Z3.91 E425.476
G1 X117.02 Z3.92 E425.613
G1 X112.16 Z3.929 E425.751
G1 X107.3 Z3.939 E425.889
G1 X102.43 Z3.949 E426.026
G1 X97.57 Z3.959 E426.164
G1 X92.7 Z3.969 E426.301
G1 X87.84 Z3.979 E426.439
G1 X82.98 Z3.988 E426.577
G1 X78.11 Z3.998 E426.714
G1 X73.25 Z4.008 E426.852
G1 Y118.2 Z4.017 E426.981
G1 Y113.65 Z4.026 E427.109
G1 Y109.1 Z4.036 E427.238
G1 Y104.55 Z4.045 E427.367
G1 Y100 Z4.054 E427.496
G1 Y95.45 Z4.063 E427.624
G1 Y90.9 Z4.072 E427.753
G1 Y86.35 Z4.082 E427.882
G1 Y81.8 Z4.091 E428.01
G1 Y77.25 Z4.1 E428.139
G1 X78.11 Z4.11 E428.277
G1 X82.98 Z4.12 E428.414
G1 X87.84 Z4.129 E428.552
G1 X92.7 Z4.139 E428.69
G1 X97.57 Z4.149 E428.827
G1 X102.43 Z4.159 E428.965
G1 X107.3 Z4.169 E429.102
G1 X112.16 Z4.179 E429.24
G1 X117.02 Z4.188 E429.378
G1 X121.89 Z4.198 E429.515
G1 X126.75 Z4.208 E429.653
G1 Y81.8 Z4.217 E429.782
G1 Y86.35 Z4.226 E429.91
G1 Y90.9 Z4.236 E430.039
G1 Y95.45 Z4.245 E430.168
G1 Y100 Z4.254 E430.297
G1 Y104.55 Z4.263 E430.425
G1 Y109.1 Z4.272 E430.554
G1 Y113.65 Z4.282 E430.683
G1 Y118.2 Z4.291 E430.811
G1 Y122.75 Z4.3 E430.94
; Layer Change GCode
; LAYER:11
; LAYER_HEIGHT:0.4
; TYPE:FILL
; TYPE:WALL-OUTER
G1 X121.89 Z4.31 E431.078
G1 X117.02 Z4.32 E431.215
G1 X112.16 Z4.329 E431.353
G1 X107.3 Z4.339 E431.491
G1 X102.43 Z4.349 E431.628
G1 X97.57 Z4.359 E431.766
G1 X92.7 Z4.369 E431.903
G1 X87.84 Z4.379 E432.041
G1 X82.98 Z4.388 E432.179
G1 X78.11 Z4.398 E432.316
G1 X73.25 Z4.408 E432.454
G1 Y118.2 Z4.417 E432.583
G1 Y113.65 Z4.426 E432.711
G1 Y109.1 Z4.436 E432.84
G1 Y104.55 Z4.445 E432.969
G1 Y100 Z4.454 E433.098
G1 Y95.45 Z4.463 E433.226
G1 Y90.9 Z4.472 E433.355
G1 Y86.35 Z4.482 E433.484
G1 Y81.8 Z4.491 E433.612
G1 Y77.25 Z4.5 E433.741
G1 X78.11 Z4.51 E433.879
G1 X82.98 Z4.52 E434.016
G1 X87.84 Z4.529 E434.154
G1 X92.7 Z4.539 E434.292
G1 X97.57 Z4.549 E434.429
G1 X102.43 Z4.559 E434.567
G1 X107.3 Z4.569 E434.704
G1 X112.16 Z4.579 E434.842
G1 X117.02 Z4.588 E434.98
G1 X121.89 Z4.598 E435.117
G1 X126.75 Z4.608 E435.255
G1 Y81.8 Z4.617 E435.384
G1 Y86.35 Z4.626 E435.512
G1 Y90.9 Z4.636 E435.641
G1 Y95.45 Z4.645 E435.77
G1 Y100 Z4.654 E435.899
G1 Y104.55 Z4.663 E436.027
G1 Y109.1 Z4.672 E436.156
G1 Y113.65 Z4.682 E436.285
G1 Y118.2 Z4.691 E436.413
G1 Y122.75 Z4.7 E436.542
; Layer Change GCode
; LAYER:12
; LAYER_HEIGHT:0.4
; TYPE:FILL
; TYPE:WALL-OUTER
G1 X121.89 Z4.71 E436.68
G1 X117.02 Z4.72 E436.817
G1 X112.16 Z4.729 E436.955
G1 X107.3 Z4.739 E437.093
G1 X102.43 Z4.749 E437.23
G1 X97.57 Z4.759 E437.368
G1 X92.7 Z4.769 E437.505
G1 X87.84 Z4.779 E437.643
G1 X82.98 Z4.788 E437.781
G1 X78.11 Z4.798 E437.918
G1 X73.25 Z4.808 E438.056
G1 Y118.2 Z4.817 E438.185
G1 Y113.65 Z4.826 E438.314
G1 Y109.1 Z4.836 E438.442
G1 Y104.55 Z4.845 E438.571
G1 Y100 Z4.854 E438.7
G1 Y95.45 Z4.863 E438.829
G1 Y90.9 Z4.872 E438.958
G1 Y86.35 Z4.882 E439.086
G1 Y81.8 Z4.891 E439.215
G1 Y77.25 Z4.9 E439.344
G1 X78.11 Z4.91 E439.482
G1 X82.98 Z4.92 E439.619
G1 X87.84 Z4.929 E439.757
G1 X92.7 Z4.939 E439.894
G1 X97.57 Z4.949 E440.032
G1 X102.43 Z4.959 E440.169
G1 X107.3 Z4.969 E440.307
G1 X112.16 Z4.979 E440.444
G1 X117.02 Z4.988 E440.582
G1 X121.89 Z4.998 E440.719
G1 X126.75 Z5.008 E440.857
G1 Y81.8 Z5.017 E440.986
G1 Y86.35 Z5.026 E441.115
G1 Y90.9 Z5.036 E441.243
G1 Y95.45 Z5.045 E441.372
G1 Y100 Z5.054 E441.501
G1 Y104.55 Z5.063 E441.63
G1 Y109.1 Z5.072 E441.759
G1 Y113.65 Z5.082 E441.887
G1 Y118.2 Z5.091 E442.016
G1 Y122.75 Z5.1 E442.145
; Layer Change GCode
; LAYER:13
; LAYER_HEIGHT:0.4
; TYPE:FILL
; TYPE:WALL-OUTER
G1 X121.89 Z5.11 E442.283
G1 X117.02 Z5.12 E442.42
G1 X112.16 Z5.129 E442.558
G1 X107.3 Z5.139 E442.695
G1 X102.43 Z5.149 E442.833
G1 X97.57 Z5.159 E442.97
G1 X92.7 Z5.169 E443.108
G1 X87.84 Z5.179 E443.245
G1 X82.98 Z5.188 E443.383
G1 X78.11 Z5.198 E443.52
G1 X73.25 Z5.208 E443.658
G1 Y118.2 Z5.217 E443.787
G1 Y113.65 Z5.226 E443.916
G1 Y109.1 Z5.236 E444.044
G1 Y104.55 Z5.245 E444.173
G1 Y100 Z5.254 E444.302
G1 Y95.45 Z5.263 E444.431
G1 Y90.9 Z5.272 E444.56
G1 Y86.35 Z5.282 E444.688
G1 Y81.8 Z5.291 E444.817
G1 Y77.25 Z5.3 E444.946
G1 X78.11 Z5.31 E445.084
G1 X82.98 Z5.32 E445.221
G1 X87.84 Z5.329 E445.359
G1 X92.7 Z5.339 E445.497
G1 X97.57 Z5.349 E445.634
G1 X102.43 Z5.359 E445.772
G1 X107.3 Z5.369 E445.909
G1 X112.16 Z5.379 E446.047
G1 X117.02 Z5.388 E446.185
G1 X121.89 Z5.398 E446.322
G1 X126.75 Z5.408 E446.46
G1 Y81.8 Z5.417 E446.589
G1 Y86.35 Z5.426 E446.717
G1 Y90.9 Z5.436 E446.846
G1 Y95.45 Z5.445 E446.975
G1 Y100 Z5.454 E447.104
G1 Y104.55 Z5.463 E447.232
G1 Y109.1 Z5.472 E447.361
G1 Y113.65 Z5.482 E447.49
G1 Y118.2 Z5.491 E447.618
G1 Y122.75 Z5.5 E447.747
; Layer Change GCode
; LAYER:14
; LAYER_HEIGHT:0.4
; TYPE:FILL
; TYPE:WALL-OUTER
G1 X121.89 Z5.51 E447.885
G1 X117.02 Z5.52 E448.022
G1 X112.16 Z5.53 E448.16
G1 X107.3 Z5.54 E448.298
G1 X102.43 Z5.55 E448.435
G1 X97.57 Z5.559 E448.573
G1 X92.7 Z5.569 E448.71
G1 X87.84 Z5.579 E448.848
G1 X82.98 Z5.589 E448.986
G1 X78.11 Z5.599 E449.123
G1 X73.25 Z5.609 E449.261
G1 Y118.2 Z5.618 E449.39
G1 Y113.65 Z5.627 E449.518
G1 Y109.1 Z5.636 E449.647
G1 Y104.55 Z5.645 E449.776
G1 Y100 Z5.655 E449.905
G1 Y95.45 Z5.664 E450.033
G1 Y90.9 Z5.673 E450.162
G1 Y86.35 Z5.682 E450.291
G1 Y81.8 Z5.691 E450.419
G1 Y77.25 Z5.7 E450.548
G1 X78.11 Z5.71 E450.686
G1 X82.98 Z5.72 E450.823
G1 X87.84 Z5.729 E450.961
G1 X92.7 Z5.739 E451.099
G1 X97.57 Z5.749 E451.236
G1 X102.43 Z5.759 E451.374
G1 X107.3 Z5.769 E451.511
G1 X112.16 Z5.779 E451.649
G1 X117.02 Z5.788 E451.787
G1 X121.89 Z5.798 E451.924
G1 X126.75 Z5.808 E452.062
G1 Y81.8 Z5.817 E452.191
G1 Y86.35 Z5.826 E452.319
G1 Y90.9 Z5.836 E452.448
G1 Y95.45 Z5.845 E452.577
G1 Y100 Z5.854 E452.706
G1 Y104.55 Z5.863 E452.834
G1 Y109.1 Z5.872 E452.963
G1 Y113.65 Z5.882 E453.092
G1 Y118.2 Z5.891 E453.22
G1 Y122.75 Z5.9 E453.349
; Layer Change GCode
; LAYER:15
; LAYER_HEIGHT:0.4
; TYPE:FILL
; TYPE:WALL-OUTER
G1 X121.89 Z5.91 E453.487
G1 X117.02 Z5.92 E453.624
G1 X112.16 Z5.93 E453.762
G1 X107.3 Z5.94 E453.9
G1 X102.43 Z5.95 E454.037
G1 X97.57 Z5.959 E454.175
G1 X92.7 Z5.969 E454.312
G1 X87.84 Z5.979 E454.45
G1 X82.98 Z5.989 E454.588
G1 X78.11 Z5.999 E454.725
G1 X73.25 Z6.009 E454.863
G1 Y118.2 Z6.018 E454.992
G1 Y113.65 Z6.027 E455.12
G1 Y109.1 Z6.036 E455.249
G1 Y104.55 Z6.045 E455.378
G1 Y100 Z6.055 E455.507
G1 Y95.45 Z6.064 E455.635
G1 Y90.9 Z6.073 E455.764
G1 Y86.35 Z6.082 E455.893
G1 Y81.8 Z6.091 E456.021
G1 Y77.25 Z6.1 E456.15
G1 X78.11 Z6.11 E456.288
G1 X82.98 Z6.12 E456.425
G1 X87.84 Z6.129 E456.563
G1 X92.7 Z6.139 E456.701
G1 X97.57 Z6.149 E456.838
G1 X102.43 Z6.159 E456.976
G1 X107.3 Z6.169 E457.113
G1 X112.16 Z6.179 E457.251
G1 X117.02 Z6.188 E457.389
G1 X121.89 Z6.198 E457.526
G1 X126.75 Z6.208 E457.664
G1 Y81.8 Z6.217 E457.793
G1 Y86.35 Z6.226 E457.921
G1 Y90.9 Z6.236 E458.05
G1 Y95.45 Z6.245 E458.179
G1 Y100 Z6.254 E458.308
G1 Y104.55 Z6.263 E458.436
G1 Y109.1 Z6.272 E458.565
G1 Y113.65 Z6.282 E458.694
G1 Y118.2 Z6.291 E458.822
G1 Y122.75 Z6.3 E458.951
; Layer Change GCode
; LAYER:16
; LAYER_HEIGHT:0.4
; TYPE:FILL
; TYPE:WALL-OUTER
G1 X121.89 Z6.31 E459.089
G1 X117.02 Z6.32 E459.226
G1 X112.16 Z6.33 E459.364
G1 X107.3 Z6.34 E459.502
G1 X102.43 Z6.35 E459.639
G1 X97.57 Z6.359 E459.777
G1 X92.7 Z6.369 E459.914
G1 X87.84 Z6.379 E460.052
G1 X82.98 Z6.389 E460.19
G1 X78.11 Z6.399 E460.327
G1 X73.25 Z6.409 E460.465
G1 Y118.2 Z6.418 E460.594
G1 Y113.65 Z6.427 E460.723
G1 Y109.1 Z6.436 E460.851
G1 Y104.55 Z6.445 E460.98
G1 Y100 Z6.455 E461.109
G1 Y95.45 Z6.464 E461.238
G1 Y90.9 Z6.473 E461.367
G1 Y86.35 Z6.482 E461.495
G1 Y81.8 Z6.491 E461.624
G1 Y77.25 Z6.5 E461.753
G1 X78.11 Z6.51 E461.891
G1 X82.98 Z6.52 E462.028
G1 X87.84 Z6.529 E462.166
G1 X92.7 Z6.539 E462.303
G1 X97.57 Z6.549 E462.441
G1 X102.43 Z6.559 E462.578
G1 X107.3 Z6.569 E462.716
G1 X112.16 Z6.579 E462.853
G1 X117.02 Z6.588 E462.991
G1 X121.89 Z6.598 E463.128
G1 X126.75 Z6.608 E463.266
G1 Y81.8 Z6.617 E463.395
G1 Y86.35 Z6.626 E463.524
G1 Y90.9 Z6.636 E463.652
G1 Y95.45 Z6.645 E463.781
G1 Y100 Z6.654 E463.91
G1 Y104.55 Z6.663 E464.039
G1 Y109.1 Z6.672 E464.168
G1 Y113.65 Z6.682 E464.296
G1 Y118.2 Z6.691 E464.425
G1 Y122.75 Z6.7 E464.554
; Layer Change GCode
; LAYER:17
; LAYER_HEIGHT:0.4
; TYPE:FILL
; TYPE:WALL-OUTER
G1 X121.89 Z6.71 E464.692
G1 X117.02 Z6.72 E464.829
G1 X112.16 Z6.73 E464.967
G1 X107.3 Z6.74 E465.104
G1 X102.43 Z6.75 E465.242
G1 X97.57 Z6.759 E465.379
G1 X92.7 Z6.769 E465.517
G1 X87.84 Z6.779 E465.654
G1 X82.98 Z6.789 E465.792
G1 X78.11 Z6.799 E465.929
G1 X73.25 Z6.809 E466.067
G1 Y118.2 Z6.818 E466.196
G1 Y113.65 Z6.827 E466.325
G1 Y109.1 Z6.836 E466.453
G1 Y104.55 Z6.845 E466.582
G1 Y100 Z6.855 E466.711
G1 Y95.45 Z6.864 E466.84
G1 Y90.9 Z6.873 E466.969
G1 Y86.35 Z6.882 E467.097
G1 Y81.8 Z6.891 E467.226
G1 Y77.25 Z6.9 E467.355
G1 X78.11 Z6.91 E467.493
G1 X82.98 Z6.92 E467.63
G1 X87.84 Z6.929 E467.768
G1 X92.7 Z6.939 E467.906
G1 X97.57 Z6.949 E468.043
G1 X102.43 Z6.959 E468.181
G1 X107.3 Z6.969 E468.318
G1 X112.16 Z6.979 E468.456
G1 X117.02 Z6.988 E468.594
G1 X121.89 Z6.998 E468.731
G1 X126.75 Z7.008 E468.869
G1 Y81.8 Z7.017 E468.998
G1 Y86.35 Z7.026 E469.126
G1 Y90.9 Z7.036 E469.255
G1 Y95.45 Z7.045 E469.384
G1 Y100 Z7.054 E469.513
G1 Y104.55 Z7.063 E469.641
G1 Y109.1 Z7.072 E469.77
G1 Y113.65 Z7.082 E469.899
G1 Y118.2 Z7.091 E470.027
G1 Y122.75 Z7.1 E470.156
; Layer Change GCode
; LAYER:18
; LAYER_HEIGHT:0.4
; TYPE:FILL
; TYPE:WALL-OUTER
G1 X121.89 Z7.11 E470.294
G1 X117.02 Z7.12 E470.431
G1 X112.16 Z7.13 E470.569
G1 X107.3 Z7.14 E470.707
G1 X102.43 Z7.15 E470.844
G1 X97.57 Z7.159 E470.982
G1 X92.7 Z7.169 E471.119
G1 X87.84 Z7.179 E471.257
G1 X82.98 Z7.189 E471.395
G1 X78.11 Z7.199 E471.532
G1 X73.25 Z7.209 E471.67
G1 Y118.2 Z7.218 E471.799
G1 Y113.65 Z7.227 E471.927
G1 Y109.1 Z7.237 E472.056
G1 Y104.55 Z7.246 E472.185
G1 Y100 Z7.255 E472.314
G1 Y95.45 Z7.264 E472.442
G1 Y90.9 Z7.273 E472.571
G1 Y86.35 Z7.283 E472.7
G1 Y81.8 Z7.292 E472.828
G1 Y77.25 Z7.301 E472.957
G1 X78.11 Z7.311 E473.095
G1 X82.98 Z7.32 E473.232
G1 X87.84 Z7.33 E473.37
G1 X92.7 Z7.34 E473.508
G1 X97.57 Z7.35 E473.645
G1 X102.43 Z7.359 E473.783
G1 X107.3 Z7.369 E473.92
G1 X112.16 Z7.379 E474.058
G1 X117.02 Z7.389 E474.196
G1 X121.89 Z7.398 E474.333
G1 X126.75 Z7.408 E474.471
G1 Y81.8 Z7.417 E474.6
G1 Y86.35 Z7.426 E474.728
G1 Y90.9 Z7.436 E474.857
G1 Y95.45 Z7.445 E474.986
G1 Y100 Z7.454 E475.115
G1 Y104.55 Z7.463 E475.243
G1 Y109.1 Z7.472 E475.372
G1 Y113.65 Z7.482 E475.501
G1 Y118.2 Z7.491 E475.629
G1 Y122.75 Z7.5 E475.758
; Layer Change GCode
; LAYER:19
; LAYER_HEIGHT:0.4
; TYPE:FILL
; TYPE:WALL-OUTER
G1 X121.89 Z7.51 E475.896
G1 X117.02 Z7.52 E476.033
G1 X112.16 Z7.53 E476.171
G1 X107.3 Z7.54 E476.309
G1 X102.43 Z7.55 E476.446
G1 X97.57 Z7.559 E476.584
G1 X92.7 Z7.569 E476.721
G1 X87.84 Z7.579 E476.859
G1 X82.98 Z7.589 E476.997
G1 X78.11 Z7.599 E477.134
G1 X73.25 Z7.609 E477.272
G1 Y118.2 Z7.618 E477.401
G1 Y113.65 Z7.627 E477.529
G1 Y109.1 Z7.637 E477.658
G1 Y104.55 Z7.646 E477.787
G1 Y100 Z7.655 E477.916
G1 Y95.45 Z7.664 E478.044
G1 Y90.9 Z7.673 E478.173
G1 Y86.35 Z7.683 E478.302
G1 Y81.8 Z7.692 E478.43
G1 Y77.25 Z7.701 E478.559
G1 X78.11 Z7.711 E478.697
G1 X82.98 Z7.72 E478.834
G1 X87.84 Z7.73 E478.972
G1 X92.7 Z7.74 E479.11
G1 X97.57 Z7.75 E479.247
G1 X102.43 Z7.759 E479.385
G1 X107.3 Z7.769 E479.522
G1 X112.16 Z7.779 E479.66
G1 X117.02 Z7.789 E479.798
G1 X121.89 Z7.798 E479.935
G1 X126.75 Z7.808 E480.073
G1 Y81.8 Z7.817 E480.202
G1 Y86.35 Z7.826 E480.331
G1 Y90.9 Z7.836 E480.459
G1 Y95.45 Z7.845 E480.588
G1 Y100 Z7.854 E480.717
G1 Y104.55 Z7.863 E480.846
G1 Y109.1 Z7.872 E480.975
G1 Y113.65 Z7.882 E481.103
G1 Y118.2 Z7.891 E481.232
G1 Y122.75 Z7.9 E481.361
; Layer Change GCode
; LAYER:20
; LAYER_HEIGHT:0.4
; TYPE:FILL
; TYPE:WALL-OUTER
G1 X121.89 Z7.91 E481.499
G1 X117.02 Z7.92 E481.636
G1 X112.16 Z7.93 E481.774
G1 X107.3 Z7.94 E481.911
G1 X102.43 Z7.95 E482.049
G1 X97.57 Z7.959 E482.186
G1 X92.7 Z7.969 E482.324
G1 X87.84 Z7.979 E482.461
G1 X82.98 Z7.989 E482.599
G1 X78.11 Z7.999 E482.736
G1 X73.25 Z8.009 E482.874
G1 Y118.2 Z8.018 E483.003
G1 Y113.65 Z8.027 E483.132
G1 Y109.1 Z8.037 E483.26
G1 Y104.55 Z8.046 E483.389
G1 Y100 Z8.055 E483.518
G1 Y95.45 Z8.064 E483.647
G1 Y90.9 Z8.073 E483.776
G1 Y86.35 Z8.083 E483.904
G1 Y81.8 Z8.092 E484.033
G1 Y77.25 Z8.101 E484.162
G1 X78.11 Z8.111 E484.3
G1 X82.98 Z8.12 E484.437
G1 X87.84 Z8.13 E484.575
G1 X92.7 Z8.14 E484.712
G1 X97.57 Z8.15 E484.85
G1 X102.43 Z8.159 E484.987
G1 X107.3 Z8.169 E485.125
G1 X112.16 Z8.179 E485.262
G1 X117.02 Z8.189 E485.4
G1 X121.89 Z8.198 E485.537
G1 X126.75 Z8.208 E485.675
G1 Y81.8 Z8.217 E485.804
G1 Y86.35 Z8.226 E485.933
G1 Y90.9 Z8.236 E486.061
G1 Y95.45 Z8.245 E486.19
G1 Y100 Z8.254 E486.319
G1 Y104.55 Z8.263 E486.448
G1 Y109.1 Z8.272 E486.577
G1 Y113.65 Z8.282 E486.705
G1 Y118.2 Z8.291 E486.834
G1 Y122.75 Z8.3 E486.963
; Layer Change GCode
; LAYER:21
; LAYER_HEIGHT:0.4
; TYPE:FILL
; TYPE:WALL-OUTER
G1 X121.89 Z8.31 E487.101
G1 X117.02 Z8.32 E487.238
G1 X112.16 Z8.33 E487.376
G1 X107.3 Z8.34 E487.514
G1 X102.43 Z8.35 E487.651
G1 X97.57 Z8.359 E487.789
G1 X92.7 Z8.369 E487.926
G1 X87.84 Z8.379 E488.064
G1 X82.98 Z8.389 E488.202
G1 X78.11 Z8.399 E488.339
G1 X73.25 Z8.409 E488.477
G1 Y118.2 Z8.418 E488.606
G1 Y113.65 Z8.427 E488.734
G1 Y109.1 Z8.437 E488.863
G1 Y104.55 Z8.446 E488.992
G1 Y100 Z8.455 E489.121
G1 Y95.45 Z8.464 E489.249
G1 Y90.9 Z8.473 E489.378
G1 Y86.35 Z8.483 E489.507
G1 Y81.8 Z8.492 E489.635
G1 Y77.25 Z8.501 E489.764
G1 X78.11 Z8.511 E489.902
G1 X82.98 Z8.52 E490.039
G1 X87.84 Z8.53 E490.177
G1 X92.7 Z8.54 E490.315
G1 X97.57 Z8.55 E490.452
G1 X102.43 Z8.559 E490.59
G1 X107.3 Z8.569 E490.727
G1 X112.16 Z8.579 E490.865
G1 X117.02 Z8.589 E491.003
G1 X121.89 Z8.598 E491.14
G1 X126.75 Z8.608 E491.278
G1 Y81.8 Z8.617 E491.407
G1 Y86.35 Z8.626 E491.535
G1 Y90.9 Z8.636 E491.664
G1 Y95.45 Z8.645 E491.793
G1 Y100 Z8.654 E491.922
G1 Y104.55 Z8.663 E492.05
G1 Y109.1 Z8.672 E492.179
G1 Y113.65 Z8.682 E492.308
G1 Y118.2 Z8.691 E492.436
G1 Y122.75 Z8.7 E492.565
; Layer Change GCode
; LAYER:22
; LAYER_HEIGHT:0.4
; TYPE:FILL
; TYPE:WALL-OUTER
G1 X121.89 Z8.71 E492.703
G1 X117.02 Z8.72 E492.84
G1 X112.16 Z8.73 E492.978
G1 X107.3 Z8.74 E493.116
G1 X102.43 Z8.75 E493.253
G1 X97.57 Z8.759 E493.391
G1 X92.7 Z8.769 E493.528
G1 X87.84 Z8.779 E493.666
G1 X82.98 Z8.789 E493.804
G1 X78.11 Z8.799 E493.941
G1 X73.25 Z8.809 E494.079
G1 Y118.2 Z8.818 E494.208
G1 Y113.65 Z8.827 E494.336
G1 Y109.1 Z8.837 E494.465
G1 Y104.55 Z8.846 E494.594
G1 Y100 Z8.855 E494.723
G1 Y95.45 Z8.864 E494.851
G1 Y90.9 Z8.873 E494.98
G1 Y86.35 Z8.883 E495.109
G1 Y81.8 Z8.892 E495.237
G1 Y77.25 Z8.901 E495.366
G1 X78.11 Z8.911 E495.504
G1 X82.98 Z8.92 E495.641
G1 X87.84 Z8.93 E495.779
G1 X92.7 Z8.94 E495.917
G1 X97.57 Z8.95 E496.054
G1 X102.43 Z8.959 E496.192
G1 X107.3 Z8.969 E496.329
G1 X112.16 Z8.979 E496.467
G1 X117.02 Z8.989 E496.605
G1 X121.89 Z8.998 E496.742
G1 X126.75 Z9.008 E496.88
G1 Y81.8 Z9.017 E497.009
G1 Y86.35 Z9.026 E497.137
G1 Y90.9 Z9.036 E497.266
G1 Y95.45 Z9.045 E497.395
G1 Y100 Z9.054 E497.524
G1 Y104.55 Z9.063 E497.652
G1 Y109.1 Z9.072 E497.781
G1 Y113.65 Z9.082 E497.91
G1 Y118.2 Z9.091 E498.038
G1 Y122.75 Z9.1 E498.167
; Layer Change GCode
; LAYER:23
; LAYER_HEIGHT:0.4
; TYPE:FILL
; TYPE:WALL-OUTER
G1 X121.89 Z9.11 E498.305
G1 X117.02 Z9.12 E498.442
G1 X112.16 Z9.13 E498.58
G1 X107.3 Z9.14 E498.718
G1 X102.43 Z9.15 E498.855
G1 X97.57 Z9.159 E498.993
G1 X92.7 Z9.169 E499.13
G1 X87.84 Z9.179 E499.268
G1 X82.98 Z9.189 E499.406
G1 X78.11 Z9.199 E499.543
G1 X73.25 Z9.209 E499.681
G1 Y118.2 Z9.218 E499.81
G1 Y113.65 Z9.227 E499.938
G1 Y109.1 Z9.237 E500.067
G1 Y104.55 Z9.246 E500.196
G1 Y100 Z9.255 E500.325
G1 Y95.45 Z9.264 E500.453
G1 Y90.9 Z9.273 E500.582
G1 Y86.35 Z9.283 E500.711
G1 Y81.8 Z9.292 E500.839
G1 Y77.25 Z9.301 E500.968
G1 X78.11 Z9.311 E501.106
G1 X82.98 Z9.32 E501.243
G1 X87.84 Z9.33 E501.381
G1 X92.7 Z9.34 E501.519
G1 X97.57 Z9.35 E501.656
G1 X102.43 Z9.359 E501.794
G1 X107.3 Z9.369 E501.931
G1 X112.16 Z9.379 E502.069
G1 X117.02 Z9.389 E502.207
G1 X121.89 Z9.398 E502.344
G1 X126.75 Z9.408 E502.482
G1 Y81.8 Z9.417 E502.611
G1 Y86.35 Z9.426 E502.74
G1 Y90.9 Z9.436 E502.868
G1 Y95.45 Z9.445 E502.997
G1 Y100 Z9.454 E503.126
G1 Y104.55 Z9.463 E503.255
G1 Y109.1 Z9.472 E503.384
G1 Y113.65 Z9.482 E503.512
G1 Y118.2 Z9.491 E503.641
G1 Y122.75 Z9.5 E503.77
; Layer Change GCode
; LAYER:24
; LAYER_HEIGHT:0.4
; TYPE:FILL
; TYPE:WALL-OUTER
G1 X121.89 Z9.51 E503.908
G1 X117.02 Z9.52 E504.045
G1 X112.16 Z9.53 E504.183
G1 X107.3 Z9.54 E504.32
G1 X102.43 Z9.55 E504.458
G1 X97.57 Z9.559 E504.595
G1 X92.7 Z9.569 E504.733
G1 X87.84 Z9.579 E504.87
G1 X82.98 Z9.589 E505.008
G1 X78.11 Z9.599 E505.145
G1 X73.25 Z9.609 E505.283
G1 Y118.2 Z9.618 E505.412
G1 Y113.65 Z9.627 E505.541
G1 Y109.1 Z9.637 E505.669
G1 Y104.55 Z9.646 E505.798
G1 Y100 Z9.655 E505.927
G1 Y95.45 Z9.664 E506.056
G1 Y90.9 Z9.673 E506.185
G1 Y86.35 Z9.683 E506.313
G1 Y81.8 Z9.692 E506.442
G1 Y77.25 Z9.701 E506.571
G1 X78.11 Z9.711 E506.709
G1 X82.98 Z9.721 E506.846
G1 X87.84 Z9.73 E506.984
G1 X92.7 Z9.74 E507.121
G1 X97.57 Z9.75 E507.259
G1 X102.43 Z9.76 E507.396
G1 X107.3 Z9.77 E507.534
G1 X112.16 Z9.78 E507.671
G1 X117.02 Z9.789 E507.809
G1 X121.89 Z9.799 E507.946
G1 X126.75 Z9.809 E508.084
G1 Y81.8 Z9.818 E508.213
G1 Y86.35 Z9.827 E508.342
G1 Y90.9 Z9.836 E508.47
G1 Y95.45 Z9.845 E508.599
G1 Y100 Z9.854 E508.728
G1 Y104.55 Z9.864 E508.857
G1 Y109.1 Z9.873 E508.986
G1 Y113.65 Z9.882 E509.114
G1 Y118.2 Z9.891 E509.243
G1 Y122.75 Z9.9 E509.372
; Layer Change GCode
; LAYER:25
; LAYER_HEIGHT:0.4
; TYPE:FILL
; TYPE:WALL-OUTER
G1 X121.89 Z9.91 E509.51
G1 X117.02 Z9.92 E509.647
G1 X112.16 Z9.93 E509.785
G1 X107.3 Z9.94 E509.923
G1 X102.43 Z9.95 E510.06
G1 X97.57 Z9.96 E510.198
G1 X92.7 Z9.97 E510.335
G1 X87.84 Z9.98 E510.473
G1 X82.98 Z9.99 E510.611
G1 X78.11 Z10 E510.748
G1 X73.25 Z10.01 E510.886
G1 Y118.2 Z10.019 E511.015
G1 Y113.65 Z10.028 E511.143
G1 Y109.1 Z10.037 E511.272
G1 Y104.55 Z10.046 E511.401
G1 Y100 Z10.056 E511.53
G1 Y95.45 Z10.065 E511.658
G1 Y90.9 Z10.074 E511.787
G1 Y86.35 Z10.083 E511.916
G1 Y81.8 Z10.092 E512.044
G1 Y77.25 Z10.101 E512.173
G1 X78.11 Z10.111 E512.311
G1 X82.98 Z10.121 E512.448
G1 X87.84 Z10.13 E512.586
G1 X92.7 Z10.14 E512.724
G1 X97.57 Z10.15 E512.861
G1 X102.43 Z10.16 E512.999
G1 X107.3 Z10.17 E513.136
G1 X112.16 Z10.18 E513.274
G1 X117.02 Z10.189 E513.412
G1 X121.89 Z10.199 E513.549
G1 X126.75 Z10.209 E513.687
G1 Y81.8 Z10.218 E513.816
G1 Y86.35 Z10.227 E513.944
G1 Y90.9 Z10.236 E514.073
G1 Y95.45 Z10.245 E514.202
G1 Y100 Z10.255 E514.331
G1 Y104.55 Z10.264 E514.459
G1 Y109.1 Z10.273 E514.588
G1 Y113.65 Z10.282 E514.717
G1 Y118.2 Z10.291 E514.845
G1 Y122.75 Z10.3 E514.974
; Layer Change GCode
; LAYER:26
; LAYER_HEIGHT:0.4
; TYPE:FILL
; TYPE:WALL-OUTER
G1 X121.89 Z10.31 E515.112
G1 X117.02 Z10.32 E515.249
G1 X112.16 Z10.33 E515.387
G1 X107.3 Z10.34 E515.525
G1 X102.43 Z10.35 E515.662
G1 X97.57 Z10.36 E515.8
G1 X92.7 Z10.37 E515.937
G1 X87.84 Z10.38 E516.075
G1 X82.98 Z10.39 E516.213
G1 X78.11 Z10.4 E516.35
G1 X73.25 Z10.41 E516.488
G1 Y118.2 Z10.419 E516.617
G1 Y113.65 Z10.428 E516.745
G1 Y109.1 Z10.437 E516.874
G1 Y104.55 Z10.446 E517.003
G1 Y100 Z10.456 E517.132
G1 Y95.45 Z10.465 E517.26
G1 Y90.9 Z10.474 E517.389
G1 Y86.35 Z10.483 E517.518
G1 Y81.8 Z10.492 E517.646
G1 Y77.25 Z10.501 E517.775
G1 X78.11 Z10.511 E517.913
G1 X82.98 Z10.521 E518.05
G1 X87.84 Z10.53 E518.188
G1 X92.7 Z10.54 E518.326
G1 X97.57 Z10.55 E518.463
G1 X102.43 Z10.56 E518.601
G1 X107.3 Z10.57 E518.738
G1 X112.16 Z10.58 E518.876
G1 X117.02 Z10.589 E519.014
G1 X121.89 Z10.599 E519.151
G1 X126.75 Z10.609 E519.289
G1 Y81.8 Z10.618 E519.418
G1 Y86.35 Z10.627 E519.546
G1 Y90.9 Z10.636 E519.675
G1 Y95.45 Z10.645 E519.804
G1 Y100 Z10.655 E519.933
G1 Y104.55 Z10.664 E520.061
G1 Y109.1 Z10.673 E520.19
G1 Y113.65 Z10.682 E520.319
G1 Y118.2 Z10.691 E520.447
G1 Y122.75 Z10.7 E520.576
; Layer Change GCode
; LAYER:27
; LAYER_HEIGHT:0.4
; TYPE:FILL
; TYPE:WALL-OUTER
G1 X121.89 Z10.71 E520.714
G1 X117.02 Z10.72 E520.851
G1 X112.16 Z10.73 E520.989
G1 X107.3 Z10.74 E521.127
G1 X102.43 Z10.75 E521.264
G1 X97.57 Z10.76 E521.402
G1 X92.7 Z10.77 E521.539
G1 X87.84 Z10.78 E521.677
G1 X82.98 Z10.79 E521.815
G1 X78.11 Z10.8 E521.952
G1 X73.25 Z10.81 E522.09
G1 Y118.2 Z10.819 E522.219
G1 Y113.65 Z10.828 E522.348
G1 Y109.1 Z10.837 E522.476
G1 Y104.55 Z10.846 E522.605
G1 Y100 Z10.856 E522.734
G1 Y95.45 Z10.865 E522.863
G1 Y90.9 Z10.874 E522.992
G1 Y86.35 Z10.883 E523.12
G1 Y81.8 Z10.892 E523.249
G1 Y77.25 Z10.901 E523.378
G1 X78.11 Z10.911 E523.516
G1 X82.98 Z10.921 E523.653
G1 X87.84 Z10.93 E523.791
G1 X92.7 Z10.94 E523.928
G1 X97.57 Z10.95 E524.066
G1 X102.43 Z10.96 E524.203
G1 X107.3 Z10.97 E524.341
G1 X112.16 Z10.98 E524.478
G1 X117.02 Z10.989 E524.616
G1 X121.89 Z10.999 E524.753
G1 X126.75 Z11.009 E524.891
G1 Y81.8 Z11.018 E525.02
G1 Y86.35 Z11.027 E525.149
G1 Y90.9 Z11.036 E525.277
G1 Y95.45 Z11.045 E525.406
G1 Y100 Z11.055 E525.535
G1 Y104.55 Z11.064 E525.664
G1 Y109.1 Z11.073 E525.793
G1 Y113.65 Z11.082 E525.921
G1 Y118.2 Z11.091 E526.05
G1 Y122.75 Z11.1 E526.179
; Layer Change GCode
; LAYER:28
; LAYER_HEIGHT:0.4
; TYPE:FILL
; TYPE:WALL-OUTER
G1 X121.89 Z11.11 E526.317
G1 X117.02 Z11.12 E526.454
G1 X112.16 Z11.13 E526.592
G1 X107.3 Z11.14 E526.729
G1 X102.43 Z11.15 E526.867
G1 X97.57 Z11.16 E527.004
G1 X92.7 Z11.17 E527.142
G1 X87.84 Z11.18 E527.279
G1 X82.98 Z11.19 E527.417
G1 X78.11 Z11.2 E527.554
G1 X73.25 Z11.21 E527.692
G1 Y118.2 Z11.219 E527.821
G1 Y113.65 Z11.228 E527.95
G1 Y109.1 Z11.237 E528.078
G1 Y104.55 Z11.246 E528.207
G1 Y100 Z11.256 E528.336
G1 Y95.45 Z11.265 E528.465
G1 Y90.9 Z11.274 E528.594
G1 Y86.35 Z11.283 E528.722
G1 Y81.8 Z11.292 E528.851
G1 Y77.25 Z11.301 E528.98
G1 X78.11 Z11.311 E529.118
G1 X82.98 Z11.321 E529.255
G1 X87.84 Z11.33 E529.393
G1 X92.7 Z11.34 E529.531
G1 X97.57 Z11.35 E529.668
G1 X102.43 Z11.36 E529.806
G1 X107.3 Z11.37 E529.943
G1 X112.16 Z11.38 E530.081
G1 X117.02 Z11.389 E530.219
G1 X121.89 Z11.399 E530.356
G1 X126.75 Z11.409 E530.494
G1 Y81.8 Z11.418 E530.623
G1 Y86.35 Z11.427 E530.751
G1 Y90.9 Z11.436 E530.88
G1 Y95.45 Z11.445 E531.009
G1 Y100 Z11.455 E531.138
G1 Y104.55 Z11.464 E531.266
G1 Y109.1 Z11.473 E531.395
G1 Y113.65 Z11.482 E531.524
G1 Y118.2 Z11.491 E531.652
G1 Y122.75 Z11.5 E531.781
; Layer Change GCode
; LAYER:29
; LAYER_HEIGHT:0.4
; TYPE:FILL
; TYPE:WALL-OUTER
G1 X121.89 Z11.51 E531.919
G1 X117.02 Z11.52 E532.056
G1 X112.16 Z11.53 E532.194
G1 X107.3 Z11.54 E532.332
G1 X102.43 Z11.55 E532.469
G1 X97.57 Z11.56 E532.607
G1 X92.7 Z11.57 E532.744
G1 X87.84 Z11.58 E532.882
G1 X82.98 Z11.59 E533.02
G1 X78.11 Z11.6 E533.157
G1 X73.25 Z11.61 E533.295
G1 Y118.2 Z11.619 E533.424
G1 Y113.65 Z11.628 E533.552
G1 Y109.1 Z11.637 E533.681
G1 Y104.55 Z11.646 E533.81
G1 Y100 Z11.656 E533.939
G1 Y95.45 Z11.665 E534.067
G1 Y90.9 Z11.674 E534.196
G1 Y86.35 Z11.683 E534.325
G1 Y81.8 Z11.692 E534.453
G1 Y77.25 Z11.701 E534.582
G1 X78.11 Z11.711 E534.72
G1 X82.98 Z11.721 E534.857
G1 X87.84 Z11.73 E534.995
G1 X92.7 Z11.74 E535.133
G1 X97.57 Z11.75 E535.27
G1 X102.43 Z11.76 E535.408
G1 X107.3 Z11.77 E535.545
G1 X112.16 Z11.78 E535.683
G1 X117.02 Z11.789 E535.821
G1 X121.89 Z11.799 E535.958
G1 X126.75 Z11.809 E536.096
G1 Y81.8 Z11.818 E536.225
G1 Y86.35 Z11.827 E536.353
G1 Y90.9 Z11.836 E536.482
G1 Y95.45 Z11.845 E536.611
G1 Y100 Z11.855 E536.74
G1 Y104.55 Z11.864 E536.868
G1 Y109.1 Z11.873 E536.997
G1 Y113.65 Z11.882 E537.126
